<?xml version="1.0" encoding="UTF-8"?>
<map version="1.10" tiledversion="1.11.2" orientation="orthogonal" renderorder="left-down" width="60" height="40" tilewidth="16" tileheight="16" infinite="0" nextlayerid="14" nextobjectid="60">
 <properties>
  <property name="AmbientLight" value="95 95 95"/>
 </properties>
 <tileset firstgid="1" name="CheshiresAtelier.THTexpansion_JojaTilesheets" tilewidth="16" tileheight="16" tilecount="225" columns="15">
  <image source="CheshiresAtelier.THTexpansion_JojaTilesheets.png" width="240" height="240"/>
  <tile id="109">
   <animation>
    <frame tileid="109" duration="250"/>
    <frame tileid="111" duration="250"/>
    <frame tileid="110" duration="250"/>
    <frame tileid="112" duration="250"/>
   </animation>
  </tile>
  <tile id="110">
   <animation>
    <frame tileid="110" duration="250"/>
    <frame tileid="110" duration="250"/>
    <frame tileid="111" duration="250"/>
    <frame tileid="111" duration="250"/>
    <frame tileid="109" duration="250"/>
    <frame tileid="109" duration="250"/>
    <frame tileid="112" duration="250"/>
    <frame tileid="112" duration="250"/>
   </animation>
  </tile>
  <tile id="120">
   <animation>
    <frame tileid="120" duration="250"/>
    <frame tileid="121" duration="250"/>
    <frame tileid="120" duration="250"/>
    <frame tileid="121" duration="250"/>
   </animation>
  </tile>
  <tile id="122">
   <animation>
    <frame tileid="122" duration="250"/>
    <frame tileid="122" duration="250"/>
    <frame tileid="123" duration="250"/>
    <frame tileid="123" duration="250"/>
   </animation>
  </tile>
  <tile id="124">
   <animation>
    <frame tileid="124" duration="250"/>
    <frame tileid="125" duration="250"/>
   </animation>
  </tile>
  <tile id="126">
   <animation>
    <frame tileid="126" duration="250"/>
    <frame tileid="127" duration="250"/>
    <frame tileid="126" duration="250"/>
    <frame tileid="126" duration="250"/>
    <frame tileid="127" duration="250"/>
   </animation>
  </tile>
  <tile id="128">
   <animation>
    <frame tileid="128" duration="250"/>
    <frame tileid="129" duration="250"/>
   </animation>
  </tile>
  <tile id="150">
   <animation>
    <frame tileid="150" duration="250"/>
    <frame tileid="150" duration="250"/>
    <frame tileid="150" duration="250"/>
    <frame tileid="150" duration="250"/>
    <frame tileid="150" duration="250"/>
    <frame tileid="150" duration="250"/>
    <frame tileid="150" duration="250"/>
    <frame tileid="136" duration="250"/>
    <frame tileid="151" duration="250"/>
    <frame tileid="152" duration="250"/>
    <frame tileid="152" duration="250"/>
    <frame tileid="152" duration="250"/>
    <frame tileid="152" duration="250"/>
    <frame tileid="152" duration="250"/>
    <frame tileid="138" duration="250"/>
    <frame tileid="152" duration="250"/>
    <frame tileid="152" duration="250"/>
    <frame tileid="138" duration="250"/>
    <frame tileid="151" duration="250"/>
   </animation>
  </tile>
  <tile id="153">
   <animation>
    <frame tileid="153" duration="250"/>
    <frame tileid="153" duration="250"/>
    <frame tileid="153" duration="250"/>
    <frame tileid="153" duration="250"/>
    <frame tileid="153" duration="250"/>
    <frame tileid="153" duration="250"/>
    <frame tileid="153" duration="250"/>
    <frame tileid="153" duration="250"/>
    <frame tileid="153" duration="250"/>
    <frame tileid="154" duration="250"/>
    <frame tileid="169" duration="250"/>
    <frame tileid="140" duration="250"/>
    <frame tileid="155" duration="250"/>
    <frame tileid="170" duration="250"/>
    <frame tileid="154" duration="250"/>
    <frame tileid="153" duration="250"/>
    <frame tileid="153" duration="250"/>
   </animation>
  </tile>
  <tile id="156">
   <animation>
    <frame tileid="156" duration="250"/>
    <frame tileid="156" duration="250"/>
    <frame tileid="156" duration="250"/>
    <frame tileid="156" duration="250"/>
    <frame tileid="142" duration="250"/>
    <frame tileid="156" duration="250"/>
    <frame tileid="156" duration="250"/>
    <frame tileid="156" duration="250"/>
    <frame tileid="156" duration="250"/>
   </animation>
  </tile>
  <tile id="157">
   <animation>
    <frame tileid="157" duration="250"/>
    <frame tileid="157" duration="250"/>
    <frame tileid="158" duration="250"/>
    <frame tileid="157" duration="250"/>
    <frame tileid="157" duration="250"/>
    <frame tileid="157" duration="250"/>
    <frame tileid="158" duration="250"/>
   </animation>
  </tile>
  <tile id="159">
   <animation>
    <frame tileid="159" duration="250"/>
    <frame tileid="144" duration="250"/>
    <frame tileid="159" duration="250"/>
    <frame tileid="144" duration="250"/>
    <frame tileid="159" duration="250"/>
    <frame tileid="144" duration="250"/>
    <frame tileid="159" duration="250"/>
    <frame tileid="144" duration="250"/>
    <frame tileid="160" duration="250"/>
    <frame tileid="144" duration="250"/>
   </animation>
  </tile>
  <tile id="161">
   <animation>
    <frame tileid="161" duration="250"/>
    <frame tileid="161" duration="250"/>
    <frame tileid="161" duration="250"/>
    <frame tileid="162" duration="250"/>
    <frame tileid="161" duration="250"/>
    <frame tileid="161" duration="250"/>
    <frame tileid="161" duration="250"/>
    <frame tileid="161" duration="250"/>
    <frame tileid="161" duration="250"/>
    <frame tileid="161" duration="250"/>
   </animation>
  </tile>
  <tile id="163">
   <animation>
    <frame tileid="163" duration="250"/>
    <frame tileid="163" duration="250"/>
    <frame tileid="163" duration="250"/>
    <frame tileid="163" duration="250"/>
    <frame tileid="163" duration="250"/>
    <frame tileid="163" duration="250"/>
    <frame tileid="163" duration="250"/>
    <frame tileid="163" duration="250"/>
    <frame tileid="164" duration="250"/>
   </animation>
  </tile>
  <tile id="165">
   <animation>
    <frame tileid="165" duration="250"/>
    <frame tileid="165" duration="250"/>
    <frame tileid="165" duration="250"/>
    <frame tileid="165" duration="250"/>
    <frame tileid="165" duration="250"/>
    <frame tileid="165" duration="250"/>
    <frame tileid="165" duration="250"/>
    <frame tileid="165" duration="250"/>
    <frame tileid="166" duration="250"/>
    <frame tileid="167" duration="250"/>
    <frame tileid="167" duration="250"/>
    <frame tileid="167" duration="250"/>
    <frame tileid="167" duration="250"/>
    <frame tileid="167" duration="250"/>
    <frame tileid="167" duration="250"/>
    <frame tileid="167" duration="250"/>
    <frame tileid="167" duration="250"/>
    <frame tileid="167" duration="250"/>
    <frame tileid="166" duration="250"/>
   </animation>
  </tile>
  <tile id="172">
   <animation>
    <frame tileid="172" duration="250"/>
    <frame tileid="172" duration="250"/>
    <frame tileid="173" duration="250"/>
    <frame tileid="172" duration="250"/>
    <frame tileid="172" duration="250"/>
    <frame tileid="172" duration="250"/>
    <frame tileid="173" duration="250"/>
   </animation>
  </tile>
  <tile id="176">
   <animation>
    <frame tileid="176" duration="250"/>
    <frame tileid="176" duration="250"/>
    <frame tileid="176" duration="250"/>
    <frame tileid="177" duration="250"/>
    <frame tileid="176" duration="250"/>
    <frame tileid="176" duration="250"/>
    <frame tileid="176" duration="250"/>
    <frame tileid="176" duration="250"/>
    <frame tileid="176" duration="250"/>
    <frame tileid="176" duration="250"/>
   </animation>
  </tile>
  <tile id="178">
   <animation>
    <frame tileid="178" duration="250"/>
    <frame tileid="178" duration="250"/>
    <frame tileid="178" duration="250"/>
    <frame tileid="178" duration="250"/>
    <frame tileid="178" duration="250"/>
    <frame tileid="178" duration="250"/>
    <frame tileid="178" duration="250"/>
    <frame tileid="178" duration="250"/>
    <frame tileid="179" duration="250"/>
   </animation>
  </tile>
  <tile id="180">
   <animation>
    <frame tileid="180" duration="250"/>
    <frame tileid="181" duration="250"/>
   </animation>
  </tile>
  <tile id="182">
   <animation>
    <frame tileid="182" duration="250"/>
    <frame tileid="182" duration="250"/>
    <frame tileid="182" duration="250"/>
    <frame tileid="182" duration="250"/>
    <frame tileid="182" duration="250"/>
    <frame tileid="183" duration="250"/>
   </animation>
  </tile>
  <tile id="186">
   <animation>
    <frame tileid="186" duration="250"/>
    <frame tileid="186" duration="250"/>
    <frame tileid="186" duration="250"/>
    <frame tileid="186" duration="250"/>
    <frame tileid="186" duration="250"/>
    <frame tileid="186" duration="250"/>
    <frame tileid="186" duration="250"/>
    <frame tileid="186" duration="250"/>
    <frame tileid="186" duration="250"/>
    <frame tileid="185" duration="250"/>
   </animation>
  </tile>
  <tile id="187">
   <animation>
    <frame tileid="187" duration="250"/>
    <frame tileid="189" duration="250"/>
    <frame tileid="188" duration="250"/>
    <frame tileid="190" duration="250"/>
   </animation>
  </tile>
  <tile id="191">
   <animation>
    <frame tileid="191" duration="250"/>
    <frame tileid="191" duration="250"/>
    <frame tileid="191" duration="250"/>
    <frame tileid="220" duration="250"/>
    <frame tileid="191" duration="250"/>
    <frame tileid="220" duration="250"/>
    <frame tileid="191" duration="250"/>
    <frame tileid="191" duration="250"/>
    <frame tileid="191" duration="250"/>
    <frame tileid="191" duration="250"/>
    <frame tileid="191" duration="250"/>
    <frame tileid="191" duration="250"/>
    <frame tileid="220" duration="250"/>
    <frame tileid="191" duration="250"/>
    <frame tileid="191" duration="250"/>
    <frame tileid="191" duration="250"/>
    <frame tileid="191" duration="250"/>
    <frame tileid="191" duration="250"/>
   </animation>
  </tile>
  <tile id="192">
   <animation>
    <frame tileid="192" duration="250"/>
    <frame tileid="221" duration="250"/>
    <frame tileid="222" duration="250"/>
    <frame tileid="221" duration="250"/>
   </animation>
  </tile>
  <tile id="193">
   <animation>
    <frame tileid="193" duration="250"/>
    <frame tileid="193" duration="250"/>
    <frame tileid="193" duration="250"/>
    <frame tileid="193" duration="250"/>
    <frame tileid="193" duration="250"/>
    <frame tileid="223" duration="250"/>
    <frame tileid="193" duration="250"/>
    <frame tileid="193" duration="250"/>
    <frame tileid="193" duration="250"/>
    <frame tileid="193" duration="250"/>
    <frame tileid="193" duration="250"/>
    <frame tileid="193" duration="250"/>
   </animation>
  </tile>
  <tile id="194">
   <animation>
    <frame tileid="194" duration="250"/>
    <frame tileid="194" duration="250"/>
    <frame tileid="224" duration="250"/>
    <frame tileid="224" duration="250"/>
   </animation>
  </tile>
  <tile id="195">
   <animation>
    <frame tileid="195" duration="250"/>
    <frame tileid="196" duration="250"/>
   </animation>
  </tile>
  <tile id="197">
   <animation>
    <frame tileid="197" duration="250"/>
    <frame tileid="197" duration="250"/>
    <frame tileid="197" duration="250"/>
    <frame tileid="197" duration="250"/>
    <frame tileid="197" duration="250"/>
    <frame tileid="198" duration="250"/>
   </animation>
  </tile>
  <tile id="199">
   <animation>
    <frame tileid="199" duration="250"/>
    <frame tileid="200" duration="250"/>
    <frame tileid="199" duration="250"/>
    <frame tileid="200" duration="250"/>
    <frame tileid="199" duration="250"/>
    <frame tileid="200" duration="250"/>
    <frame tileid="199" duration="250"/>
    <frame tileid="200" duration="250"/>
    <frame tileid="199" duration="250"/>
    <frame tileid="200" duration="250"/>
    <frame tileid="199" duration="250"/>
    <frame tileid="199" duration="250"/>
    <frame tileid="199" duration="250"/>
    <frame tileid="199" duration="250"/>
    <frame tileid="199" duration="250"/>
    <frame tileid="199" duration="250"/>
   </animation>
  </tile>
  <tile id="203">
   <animation>
    <frame tileid="203" duration="250"/>
    <frame tileid="203" duration="250"/>
    <frame tileid="204" duration="250"/>
    <frame tileid="204" duration="250"/>
    <frame tileid="202" duration="250"/>
    <frame tileid="202" duration="250"/>
    <frame tileid="205" duration="250"/>
    <frame tileid="205" duration="250"/>
   </animation>
  </tile>
  <tile id="212">
   <animation>
    <frame tileid="212" duration="250"/>
    <frame tileid="212" duration="250"/>
    <frame tileid="212" duration="250"/>
    <frame tileid="212" duration="250"/>
    <frame tileid="212" duration="250"/>
    <frame tileid="212" duration="250"/>
    <frame tileid="212" duration="250"/>
    <frame tileid="213" duration="250"/>
    <frame tileid="212" duration="250"/>
    <frame tileid="212" duration="250"/>
    <frame tileid="212" duration="250"/>
    <frame tileid="213" duration="250"/>
    <frame tileid="212" duration="250"/>
    <frame tileid="212" duration="250"/>
    <frame tileid="212" duration="250"/>
    <frame tileid="212" duration="250"/>
    <frame tileid="212" duration="250"/>
    <frame tileid="212" duration="250"/>
    <frame tileid="212" duration="250"/>
    <frame tileid="212" duration="250"/>
    <frame tileid="212" duration="250"/>
   </animation>
  </tile>
  <tile id="214">
   <animation>
    <frame tileid="214" duration="250"/>
    <frame tileid="214" duration="250"/>
    <frame tileid="214" duration="250"/>
    <frame tileid="214" duration="250"/>
    <frame tileid="214" duration="250"/>
    <frame tileid="214" duration="250"/>
    <frame tileid="215" duration="250"/>
    <frame tileid="214" duration="250"/>
    <frame tileid="214" duration="250"/>
    <frame tileid="214" duration="250"/>
    <frame tileid="214" duration="250"/>
    <frame tileid="214" duration="250"/>
    <frame tileid="214" duration="250"/>
    <frame tileid="214" duration="250"/>
    <frame tileid="214" duration="250"/>
    <frame tileid="214" duration="250"/>
    <frame tileid="215" duration="250"/>
    <frame tileid="215" duration="250"/>
    <frame tileid="214" duration="250"/>
    <frame tileid="214" duration="250"/>
    <frame tileid="214" duration="250"/>
    <frame tileid="214" duration="250"/>
    <frame tileid="214" duration="250"/>
    <frame tileid="214" duration="250"/>
    <frame tileid="214" duration="250"/>
   </animation>
  </tile>
  <tile id="216">
   <animation>
    <frame tileid="216" duration="250"/>
    <frame tileid="216" duration="250"/>
    <frame tileid="216" duration="250"/>
    <frame tileid="216" duration="250"/>
    <frame tileid="216" duration="250"/>
    <frame tileid="216" duration="250"/>
    <frame tileid="216" duration="250"/>
    <frame tileid="216" duration="250"/>
    <frame tileid="216" duration="250"/>
    <frame tileid="216" duration="250"/>
    <frame tileid="217" duration="250"/>
   </animation>
  </tile>
  <tile id="218">
   <animation>
    <frame tileid="218" duration="250"/>
    <frame tileid="218" duration="250"/>
    <frame tileid="218" duration="250"/>
    <frame tileid="219" duration="250"/>
    <frame tileid="218" duration="250"/>
    <frame tileid="218" duration="250"/>
    <frame tileid="218" duration="250"/>
    <frame tileid="218" duration="250"/>
    <frame tileid="218" duration="250"/>
    <frame tileid="218" duration="250"/>
    <frame tileid="218" duration="250"/>
    <frame tileid="219" duration="250"/>
    <frame tileid="218" duration="250"/>
   </animation>
  </tile>
 </tileset>
 <tileset firstgid="226" name="MovieTheaterJoja_TileSheet" tilewidth="16" tileheight="16" tilecount="256" columns="16">
  <image source="MovieTheaterJoja_TileSheet.png" width="256" height="256"/>
 </tileset>
 <tileset firstgid="482" name="townInterior" tilewidth="16" tileheight="16" tilecount="2176" columns="32">
  <image source="townInterior.png" width="512" height="1088"/>
 </tileset>
 <tileset firstgid="2658" name="townInterior_2" tilewidth="16" tileheight="16" tilecount="1312" columns="32">
  <image source="townInterior_2.png" width="512" height="656"/>
 </tileset>
 <tileset firstgid="3970" name="furniture" tilewidth="16" tileheight="16" tilecount="2976" columns="32">
  <image source="furniture.png" width="512" height="1488"/>
 </tileset>
 <tileset firstgid="6946" name="paths" tilewidth="16" tileheight="16" tilecount="64" columns="4">
  <image source="paths.png" width="64" height="256"/>
 </tileset>
 <layer id="1" name="Back" width="60" height="40">
  <data encoding="csv">
0,0,0,0,0,0,0,0,0,0,0,0,0,0,0,0,0,0,0,0,0,0,0,0,0,0,0,0,0,0,0,0,0,0,0,0,0,0,0,0,0,0,0,0,0,0,0,0,0,0,0,0,0,0,0,0,0,0,0,0,
0,2371,2371,2371,2371,2371,2371,2371,2371,2371,2371,2371,2371,2371,2371,2371,2371,2371,2371,2371,2371,2371,2371,2371,2371,2371,2371,2371,2371,2371,2371,2371,2371,2371,2371,2371,2371,2371,2371,2371,2371,2371,2371,2371,2371,2371,2371,2371,2371,2371,2371,2371,2371,2371,2371,2371,2371,2371,2371,0,
0,2371,2371,2371,2371,2371,2371,2371,2371,2371,2371,2371,2371,2371,2371,2371,2371,2371,2371,2371,2371,2371,2371,2371,2371,2371,2371,2371,2371,2371,2371,2371,2371,2371,2371,2371,2371,2371,2371,2371,2371,2371,2371,2371,2371,2371,2371,2371,2371,2371,2371,2371,2371,2371,2371,2371,2371,2371,2371,0,
0,2371,2371,2371,2371,2371,2371,2371,2371,2371,2371,2371,2371,2371,2371,2371,2371,2371,2371,2371,2371,2371,2371,2371,2371,2371,2371,2371,2371,2371,2371,2371,2371,2371,2371,2371,2371,2371,2371,2371,2371,2371,2371,2371,2371,2371,2371,2371,2371,2371,2371,2371,2371,2371,2371,2371,2371,2371,2371,0,
0,2371,2371,2371,2371,2371,2371,2371,2371,2371,2371,2371,2371,2371,2371,2371,2371,2371,2371,2371,2371,2371,2371,2371,2371,2371,2371,2371,2371,2371,2371,2371,2371,2371,2371,2371,2371,2371,2371,2371,2371,2371,2371,2371,2371,2371,2371,2371,2371,2371,2371,2371,2371,2371,2371,2371,2371,2371,2371,0,
0,2371,2371,2371,2371,2371,2371,2371,2371,2371,2371,2371,2371,2371,2371,2371,2371,2371,2371,2371,2371,2371,2371,2371,2371,2371,2371,2371,2371,2371,2371,2371,2371,2371,2371,2371,2371,2371,2371,2371,2371,2371,2371,2371,2371,2371,2371,2371,2371,2371,2371,2371,2371,2371,2371,2371,2371,2371,2371,0,
0,2371,2371,2371,2371,2371,2371,2371,2371,2371,2371,2371,2371,2371,2371,2371,2371,2371,2371,2371,2371,2371,2371,2371,2371,2371,2371,2371,2371,2371,2371,2371,2371,2371,2371,2371,2371,2371,2371,2371,2371,2371,2371,2371,2371,2371,2371,2371,2371,2371,2371,2371,2371,2371,2371,2371,2371,2371,2371,0,
0,2371,2371,2371,2371,2371,2371,2371,2371,2371,2371,2371,2371,2371,2371,2371,2371,2371,2371,2371,2371,2371,2371,2371,2371,2371,2371,2371,2371,2371,2371,2371,2371,2371,2371,2371,2371,2371,2371,2371,2371,2371,2371,2371,2371,2371,2371,2371,2371,2371,2371,2371,2371,2371,2371,2371,2371,2371,2371,0,
0,2371,2371,2371,2371,2371,2371,2371,2371,2371,2371,2371,2371,2371,2371,2371,2371,2371,2371,2371,2371,2371,2371,2371,2371,2371,2371,2371,2371,2371,2371,2371,2371,2371,2371,2371,2371,2371,2371,2371,2371,2371,2371,2371,2371,2371,2371,2371,2371,2371,2371,2371,2371,2371,2371,2371,2371,2371,2371,0,
0,2371,2371,2371,2371,2371,2371,2371,2371,2371,2371,2371,2371,2371,2371,2371,2371,2371,2371,2371,2371,2371,2371,2371,2371,2371,2371,2371,2371,2371,2371,2371,2371,2371,2371,2371,2371,2371,2371,2371,2371,2371,2371,2371,2371,2371,2371,2371,2371,2371,2371,2371,2371,2371,2371,2371,2371,2371,2371,0,
0,2371,2371,2371,2371,2371,2371,2371,2371,2371,2371,2371,2371,2371,2371,2371,2371,2371,2371,2371,2371,2371,2371,2371,2371,2371,2371,2371,2371,2371,2371,2371,2371,2371,2371,2371,2371,2371,2371,2371,2371,2371,2371,2371,2371,2371,2371,2371,2371,2371,2371,2371,2371,2371,2371,2371,2371,2371,2371,0,
0,2371,2371,2371,2371,2371,2371,2371,2371,2371,2371,2371,2371,2371,2371,2371,2371,2371,2371,2371,2371,2371,2371,2371,2371,2371,2371,2371,2371,2371,2371,2371,2371,2371,2371,2371,2371,2371,2371,2371,2371,2371,2371,2371,2371,2371,2371,2371,2371,2371,2371,2371,2371,2371,2371,2371,2371,2371,2371,0,
0,2371,2371,2371,2371,2371,2371,2371,2371,2371,2371,2371,2371,2371,2371,2371,2371,2371,2371,2371,2371,2371,2371,2371,2371,2371,2371,2371,2371,2371,2371,2371,2371,2371,2371,2371,2371,2371,2371,2371,2371,2371,2371,2371,2371,2371,2371,2371,2371,2371,2371,2371,2371,2371,2371,2371,2371,2371,2371,0,
0,2371,2371,2371,2371,2371,2371,2371,2371,2371,2371,2371,2371,2371,2371,2371,2371,2371,2371,2371,2371,2371,2371,2371,2371,2371,2371,2371,2371,2371,2371,2371,2371,2371,2371,2371,2371,2371,2371,2371,2371,2371,2371,2371,2371,2371,2371,2371,2371,2371,2371,2371,2371,2371,2371,2371,2371,2371,2371,0,
0,2371,2371,2371,2371,2371,2371,2371,2371,2371,2371,2371,2371,2371,2371,2371,2371,2371,2371,2371,2371,2371,2371,2371,2371,2371,2371,2371,2371,2371,2371,2371,2371,2371,2371,2371,2371,2371,2371,2371,2371,2371,2371,2371,2371,2371,2371,2371,2371,2371,2371,2371,2371,2371,2371,2371,2371,2371,2371,0,
0,2371,2371,2371,2371,2371,2371,2371,2371,2371,2371,2371,2371,2371,2371,2371,2371,2371,2371,2371,2371,2371,2371,2371,2371,2371,2371,2371,2371,2371,2371,2371,2371,2371,2371,2371,2371,2371,2371,2371,2371,2371,2371,2371,2371,2371,2371,2371,2371,2371,2371,2371,2371,2371,2371,2371,2371,2371,2371,0,
0,2371,2371,2371,2371,2371,2371,2371,2371,2371,2371,2371,2371,2371,2371,2371,2371,2371,2371,2371,2371,2371,2371,2371,2371,2371,2371,2371,2371,2371,2371,2371,2371,2371,2371,2371,2371,2371,2371,2371,2371,2371,2371,2371,2371,2371,2371,2371,2371,2371,2371,2371,2371,2371,2371,2371,2371,2371,2371,0,
0,2371,2371,2371,2371,2371,2371,2371,2371,2371,2371,2371,2371,2371,2371,2371,2371,2371,2371,2371,2371,2371,2371,2371,2371,2371,2371,2371,2371,2371,2371,2371,2371,2371,2371,2371,2371,2371,2371,2371,2371,2371,2371,2371,2371,2371,2371,2371,2371,2371,2371,2371,2371,2371,2371,2371,2371,2371,2371,0,
0,2371,2371,2371,2371,2371,2371,2371,2371,2371,2371,2371,2371,2371,2371,2371,2371,2371,2371,2371,2371,2371,2371,2371,2371,2371,2371,2371,2371,2371,2371,2371,2371,2371,2371,2371,2371,2371,2371,2371,2371,2371,2371,2371,2371,2371,2371,2371,2371,2371,2371,2371,2371,2371,2371,2371,2371,2371,2371,0,
0,2371,2371,2371,2371,2371,2371,2371,2371,2371,2371,2371,2371,2371,2371,2371,2371,2371,2371,2371,2371,2371,2371,2371,2371,2371,2371,2371,2371,2371,2371,2371,2371,2371,2371,2371,2371,2371,2371,2371,2371,2371,2371,2371,2371,2371,2371,2371,2371,2371,2371,2371,2371,2371,2371,2371,2371,2371,2371,0,
0,2371,2371,2371,2371,2371,2371,2371,2371,2371,2371,2371,2371,2371,2371,2371,2371,2371,2371,2371,2371,2371,2371,2371,2371,2371,2371,2371,2371,2371,2371,2371,2371,2371,2371,2371,2371,2371,2371,2371,2371,2371,2371,2371,2371,2371,2371,2371,2371,2371,2371,2371,2371,2371,2371,2371,2371,2371,2371,0,
0,2371,2371,2371,2371,2371,2371,2371,2371,2371,2371,2371,2371,2371,2371,2371,2371,2371,2371,2371,2371,2371,2371,2371,2371,2371,2371,2371,2371,2371,2371,2371,2371,2371,2371,2371,2371,2371,2371,2371,2371,2371,2371,2371,2371,2371,2371,2371,2371,2371,2371,2371,2371,2371,2371,2371,2371,2371,2371,0,
0,2371,2371,2371,2371,2371,2371,2371,2371,2371,2371,2371,2371,2371,2371,2371,2371,2371,2371,2371,2371,2371,2371,2371,2371,2371,2371,2371,2371,2371,2371,2371,2371,2371,2371,2371,2371,2371,2371,2371,2371,2371,2371,2371,2371,2371,2371,2371,2371,2371,2371,2371,2371,2371,2371,2371,2371,2371,2371,0,
0,2371,2371,2371,2371,2371,2371,2371,2371,2371,2371,2371,2371,2371,2371,2371,2371,2371,2371,2371,2371,2371,2371,2371,2371,2371,2371,2371,2371,2371,2371,2371,2371,2371,2371,2371,2371,2371,2371,2371,2371,2371,2371,2371,2371,2371,2371,2371,2371,2371,2371,2371,2371,2371,2371,2371,2371,2371,2371,0,
0,2371,2371,2371,2371,2371,2371,2371,2371,2371,2371,2371,2371,2371,2371,2371,2371,2371,2371,2371,2371,2371,2371,2371,2371,2371,2371,2371,2371,2371,2371,2371,2371,2371,2371,2371,2371,2371,2371,2371,2371,2371,2371,2371,2371,2371,2371,2371,2371,2371,2371,2371,2371,2371,2371,2371,2371,2371,2371,0,
0,2371,2371,2371,2371,2371,2371,2371,2371,2371,2371,2371,2371,2371,2371,2371,2371,2371,2371,2371,2371,2371,2371,2371,2371,2371,2371,2371,2371,2371,2371,2371,2371,2371,2371,2371,2371,2371,2371,2371,2371,2371,2371,2371,2371,2371,2371,2371,2371,2371,2371,2371,2371,2371,2371,2371,2371,2371,2371,0,
0,2371,2371,2371,2371,2371,398,2371,400,2371,2371,2371,398,2371,400,2371,2371,2371,398,2371,400,2371,2371,2371,2371,2371,2371,2371,2371,2371,2371,2371,2371,2371,2371,2371,2371,2371,2371,2371,2371,2371,2371,2371,2371,2371,2371,2371,2371,2371,2371,2371,2371,2371,2371,2371,2371,2371,2371,0,
0,2371,2371,2371,2371,2371,2371,2371,2371,2371,2371,2371,2371,2371,2371,2371,2371,2371,2371,2371,2371,2371,2371,2371,2371,2371,2371,2371,2371,2371,2371,2371,2371,2371,2371,2371,2371,2371,2371,2371,2371,2371,2371,2371,2371,2371,2371,2371,2371,2371,2371,2371,2371,2371,2371,2371,2371,2371,2371,0,
0,2371,2371,2371,2371,2371,2371,2371,2371,2371,2371,2371,2371,2371,2371,2371,2371,2371,2371,2371,2371,2371,2371,2371,2371,2371,2371,2371,2371,2371,2371,2371,2371,2371,2371,2371,2371,2371,2371,2371,2371,2371,2371,2371,2371,2371,2371,2371,2371,2371,2371,2371,2371,2371,2371,2371,2371,2371,2371,0,
2371,2371,2371,2371,2371,2371,2371,2371,2371,2371,2371,2371,2371,2371,2371,2371,2371,2371,2371,2371,2371,2371,2371,2371,2371,2371,2371,2371,2371,2371,2371,2371,2371,2371,2371,2371,2371,2371,2371,2371,2371,2371,2371,2371,2371,2371,2371,2371,2371,2371,2371,2371,2371,2371,2371,2371,2371,2371,2371,0,
2371,2371,2371,2371,2371,2371,2371,2371,2371,2371,2371,2371,2371,2371,2371,2371,2371,2371,2371,2371,2371,2371,2371,2371,2371,2371,2371,2371,2371,2371,2371,2371,2371,2371,2371,2371,2371,2371,2371,2371,2371,2371,2371,2371,2371,2371,2371,2371,2371,2371,2371,2371,2371,2371,2371,2371,2371,2371,2371,0,
2371,2371,2371,2371,2371,2371,2371,2371,2371,2371,2371,2371,2371,2371,2371,2371,2371,2371,2371,2371,2371,2371,2371,2371,2371,2371,2371,2371,2371,2371,2371,2371,2371,2371,2371,2371,2371,2371,2371,2371,2371,2371,2371,2371,2371,2371,2371,2371,2371,2371,2371,2371,2371,2371,2371,2371,2371,2371,2371,2371,
2371,2371,2371,2371,2371,2371,2371,2371,2371,2371,2371,2371,2371,2371,2371,2371,2371,2371,2371,2371,2371,2371,2371,2371,2371,2371,2371,2371,2371,2371,2371,2371,2371,2371,2371,2371,2371,2371,2371,2371,2371,2371,2371,2371,2371,2371,2371,2371,2371,2371,2371,2371,2371,2371,2371,2371,2371,2371,2371,2371,
2371,2371,2371,2371,2371,2371,2371,2371,2371,2371,2371,2371,2371,2371,2371,2371,2371,2371,2371,2371,2371,2371,2371,2371,2371,2371,2371,2371,2371,2371,2371,2371,2371,2371,2371,2371,2371,2371,2371,2371,2371,2371,2371,2371,2371,2371,2371,2371,2371,2371,2371,2371,2371,2371,2371,2371,2371,2371,2371,2371,
2371,2371,2371,2371,2371,2371,2371,2371,2371,2371,2371,2371,2371,2371,2371,2371,2371,2371,2371,2371,2371,2371,2371,2371,2371,2371,2371,2371,2371,2371,2371,2371,2371,2371,2371,2371,2371,2371,2371,2371,2371,2371,2371,2371,2371,2371,2371,2371,2371,2371,2371,2371,2371,2371,2371,2371,2371,2371,2371,0,
2371,2371,2371,2371,2371,2371,2371,2371,2371,2371,2371,2371,2371,2371,2371,2371,2371,2371,2371,2371,2371,2371,2371,2371,2371,2371,2371,2371,2371,2371,2371,2371,2371,2371,2371,2371,2371,2371,2371,2371,2371,2371,2371,2371,2371,2371,2371,2371,2371,2371,2371,2371,2371,2371,2371,2371,2371,2371,2371,2371,
2371,2371,2371,2371,2371,2371,2371,2371,2371,2371,2371,2371,2371,2371,2371,2371,2371,2371,2371,2371,2371,2371,2371,2371,2371,2371,2371,2371,2371,2371,2371,2371,2371,2371,2371,2371,2371,2371,2371,2371,2371,2371,2371,2371,2371,2371,2371,2371,2371,2371,2371,2371,2371,2371,2371,2371,2371,2371,0,0,
2371,2371,2371,2371,2371,2371,2371,2371,2371,2371,2371,2371,2371,2371,2371,2371,2371,2371,2371,2371,2371,2371,2371,2371,2371,2371,2371,2371,2371,2371,2371,2371,2371,2371,2371,2371,2371,2371,2371,2371,2371,2371,2371,2371,2371,2371,2371,2371,2371,2371,2371,2371,2371,2371,2371,2371,2371,2371,0,0,
2371,2371,2371,2371,2371,2371,2371,2371,2371,2371,2371,2371,2371,2371,2371,2371,2371,2371,2371,2371,2371,2371,2371,2371,2371,2371,2371,2371,2371,2371,2371,2371,2371,2371,2371,2371,2371,2371,2371,2371,2371,2371,2371,2371,2371,2371,2371,2371,2371,2371,2371,2371,2371,2371,2371,2371,2371,2371,2371,0,
0,0,0,0,0,0,0,0,0,0,0,0,0,0,0,0,0,0,0,0,0,0,0,0,0,0,0,0,0,0,0,0,0,0,0,0,0,0,0,0,0,0,0,0,0,0,0,0,0,0,0,0,0,0,0,0,0,0,0,0
</data>
 </layer>
 <layer id="13" name="Back2" width="60" height="40">
  <data encoding="csv">
0,0,0,0,0,0,0,0,0,0,0,0,0,0,0,0,0,0,0,0,0,0,0,0,0,0,0,0,0,0,0,0,0,0,0,0,0,0,0,0,0,0,0,0,0,0,0,0,0,0,0,0,0,0,0,0,0,0,0,0,
0,0,0,0,0,0,0,0,0,0,0,0,0,0,0,0,0,0,0,0,0,0,0,0,0,0,0,0,0,0,0,0,0,0,0,0,0,0,0,0,0,0,0,0,0,0,0,0,0,0,0,0,0,0,0,0,0,0,0,0,
0,0,0,0,0,0,0,0,0,0,0,0,0,0,0,0,0,0,0,0,0,0,0,0,0,0,0,0,0,0,0,0,0,0,0,0,0,0,0,0,0,0,0,0,0,0,0,0,0,0,0,0,0,0,0,0,0,0,0,0,
0,0,0,0,0,0,0,0,0,0,0,0,0,0,0,0,0,0,0,0,0,0,0,0,0,0,0,0,0,0,0,0,0,0,0,0,0,0,0,0,0,0,0,0,0,0,0,0,0,0,0,0,0,0,0,0,0,0,0,0,
0,0,0,0,0,0,0,0,0,0,0,0,0,0,0,0,0,0,0,0,0,0,0,0,0,0,0,0,0,0,0,0,0,0,0,0,0,0,0,0,0,0,0,0,0,0,0,0,0,0,0,0,0,0,0,0,0,0,0,0,
0,0,0,0,0,0,0,0,0,0,0,0,0,0,0,0,0,0,0,0,0,0,0,0,0,0,0,0,0,0,0,0,0,0,0,0,0,0,0,0,0,0,0,0,0,0,0,0,0,0,0,0,0,0,0,0,0,0,0,0,
0,0,0,0,0,0,0,0,0,0,0,0,0,0,0,0,0,0,0,0,0,0,0,0,0,0,0,0,0,0,0,0,0,0,0,0,0,0,0,0,0,0,0,0,0,0,0,0,0,0,0,0,0,0,0,0,0,0,0,0,
0,0,0,0,0,0,0,0,0,0,0,0,0,0,0,0,0,0,0,0,0,0,0,0,0,0,0,11,11,11,11,11,11,0,0,0,0,0,0,0,0,0,0,0,0,0,0,0,0,355,356,357,358,359,360,361,0,0,0,0,
0,0,0,0,0,0,0,0,0,0,0,0,0,0,0,0,0,0,0,0,0,0,0,2803,2804,0,0,11,11,11,11,11,11,0,0,0,0,0,0,0,0,0,0,0,0,0,0,0,0,371,372,373,374,375,376,377,0,0,0,0,
0,0,0,0,0,0,0,0,0,0,0,0,0,0,0,0,0,0,0,0,0,0,0,2835,2836,0,0,0,27,0,0,27,0,0,0,0,0,0,0,0,0,0,0,0,0,0,0,0,0,387,388,389,390,391,392,393,0,0,0,0,
0,0,0,0,0,0,0,0,0,0,0,0,0,0,0,0,0,0,0,0,0,0,0,0,0,0,0,0,27,0,0,27,0,0,0,0,0,0,0,0,0,0,0,0,0,0,0,0,0,403,404,405,406,407,408,409,0,0,0,0,
0,0,0,0,0,0,2803,2804,0,0,0,0,0,0,0,0,0,0,0,0,0,0,0,0,0,0,0,0,27,0,0,27,0,0,0,0,0,0,0,0,0,0,0,0,0,0,0,0,0,0,0,0,0,0,0,0,0,0,0,0,
0,0,0,0,0,0,2835,2836,0,0,0,0,0,0,0,0,0,0,0,0,0,0,0,0,0,0,0,0,27,0,0,27,0,0,0,0,0,0,0,0,0,0,0,0,0,0,0,0,0,0,0,0,0,0,0,0,0,0,0,0,
0,0,0,0,0,0,0,0,0,0,0,0,0,0,0,0,0,0,0,0,0,0,0,0,0,0,0,11,11,11,11,11,11,0,0,0,0,0,0,0,0,0,0,0,0,0,0,0,0,0,0,0,0,0,0,0,0,0,0,0,
0,0,0,0,0,0,0,0,0,0,0,0,0,0,0,0,0,0,0,0,0,0,0,0,0,0,0,11,11,11,11,11,11,0,0,0,0,0,0,0,0,0,0,0,0,0,0,0,0,0,0,0,0,0,0,0,0,0,0,0,
0,0,0,0,0,0,0,0,0,0,0,0,0,0,0,0,0,0,0,0,0,0,0,0,0,0,0,11,11,11,11,11,11,0,0,0,0,0,0,0,0,0,0,0,0,0,0,0,0,0,0,0,0,0,0,0,0,0,0,0,
0,0,0,0,0,0,0,0,0,0,0,0,0,0,0,0,0,2772,2773,0,0,0,0,0,0,0,0,0,27,0,0,27,0,0,0,0,0,0,0,0,0,0,0,0,0,0,0,0,0,0,0,0,0,0,0,0,0,0,0,0,
0,0,0,0,0,0,0,0,0,0,0,0,0,0,0,0,0,0,0,0,0,0,0,0,0,0,0,0,27,0,0,27,0,0,0,0,0,0,0,0,0,0,0,0,0,0,0,0,0,0,0,0,0,0,0,0,0,0,0,0,
0,0,0,0,0,0,0,0,0,0,0,0,0,0,0,0,0,0,0,0,0,0,0,0,0,0,0,0,27,0,0,27,0,0,0,0,0,0,0,0,0,0,0,0,0,0,0,0,0,0,0,0,0,0,0,0,0,0,0,0,
0,0,2803,2804,0,0,0,0,0,0,0,0,0,0,0,0,0,0,0,0,0,0,0,0,0,0,0,0,27,0,0,27,0,0,0,0,0,0,0,0,0,0,0,0,0,0,0,0,0,0,0,0,0,0,0,0,0,0,0,0,
0,0,2835,2836,0,0,0,0,0,0,0,0,0,0,0,0,0,0,0,0,0,0,0,0,0,0,0,0,27,0,0,27,0,0,0,0,0,0,0,0,0,0,0,0,0,0,0,0,0,0,0,0,0,0,0,0,0,0,0,0,
0,0,0,0,0,0,0,0,0,0,0,0,0,0,0,0,0,0,0,0,0,0,0,0,0,0,0,0,27,0,0,27,0,0,0,0,0,0,0,0,0,0,0,0,0,0,0,0,0,0,0,0,0,0,0,0,0,0,0,0,
0,0,0,0,0,0,0,0,0,0,0,0,0,0,0,0,0,0,0,0,0,0,0,0,0,0,0,0,27,0,0,27,0,0,0,0,0,0,0,0,0,0,0,0,0,0,0,0,0,0,0,0,0,0,0,0,0,0,0,0,
0,0,0,0,0,0,0,0,0,0,0,0,0,0,0,0,0,0,0,0,0,0,0,0,0,0,0,0,27,0,0,27,0,0,0,0,0,0,0,0,0,0,0,0,0,0,0,0,0,0,0,0,0,0,0,0,0,0,0,0,
0,0,0,0,0,0,0,0,0,0,0,0,0,0,0,0,0,0,0,0,0,0,0,0,0,0,0,0,27,0,0,27,0,0,0,0,0,0,0,0,0,0,0,0,0,0,0,0,0,0,0,0,0,0,0,0,0,0,0,0,
0,0,0,0,0,0,0,0,0,0,0,0,0,0,0,0,0,0,0,0,0,0,0,0,0,0,0,0,27,0,0,27,0,0,0,0,0,0,0,0,0,0,0,0,0,0,0,0,0,0,0,0,0,0,0,0,0,0,0,0,
0,0,0,0,0,0,0,0,0,0,0,0,0,0,0,0,0,0,0,0,0,0,0,0,0,0,0,0,27,0,0,27,0,0,0,0,0,0,0,0,0,0,0,0,0,0,0,0,0,0,0,0,0,0,0,0,0,0,0,0,
0,0,0,11,11,11,0,0,0,11,11,11,0,0,0,11,11,11,0,0,0,11,11,11,0,0,0,0,27,0,0,27,0,0,0,0,0,0,0,0,0,0,0,0,0,0,0,0,0,0,0,0,0,0,0,0,0,0,0,0,
0,0,0,0,27,0,0,0,0,0,27,0,0,0,0,0,27,0,0,0,0,0,27,0,0,0,0,0,27,0,0,27,0,0,0,0,0,0,0,0,0,0,0,0,0,0,0,0,0,0,0,0,0,0,0,0,0,0,0,0,
0,0,0,0,27,0,0,0,0,0,27,0,0,0,0,0,27,0,0,0,0,0,27,0,0,0,0,0,27,0,0,27,0,0,0,0,0,11,11,0,0,0,11,11,0,0,0,11,11,0,0,0,11,11,0,0,0,0,0,0,
0,0,0,0,27,0,0,0,0,0,27,0,0,0,0,0,27,0,0,0,0,0,27,0,0,0,0,0,27,0,0,27,0,0,0,0,0,27,29,0,0,0,27,29,0,0,0,27,29,0,0,0,27,29,0,0,0,0,0,0,
0,0,0,11,11,11,0,0,0,11,11,11,0,0,0,11,11,11,0,0,0,11,11,11,0,0,0,11,11,0,0,11,11,0,0,0,0,11,11,0,0,0,11,11,0,0,0,11,11,0,0,0,11,11,0,0,0,0,0,0,
0,0,0,11,11,11,43,43,43,11,11,11,43,43,43,11,11,11,43,43,43,11,11,11,43,43,43,11,11,0,0,11,11,43,43,43,43,11,11,43,43,43,11,11,43,43,43,11,11,43,43,43,11,11,0,0,0,0,0,0,
0,0,0,11,11,11,0,0,0,11,11,11,0,0,0,11,11,11,0,0,0,11,11,11,0,0,0,11,11,0,0,11,11,0,0,0,0,0,0,0,0,0,0,0,0,0,0,0,0,0,0,0,0,0,0,0,0,0,0,0,
0,0,0,0,0,0,0,0,0,0,0,0,0,0,0,0,0,0,0,0,0,0,0,0,0,0,0,0,27,0,0,27,0,0,0,0,0,0,0,0,0,0,0,0,0,0,0,0,0,0,0,0,0,0,0,0,0,0,0,0,
0,0,0,0,0,0,0,0,0,0,0,0,0,0,0,0,0,0,0,0,0,0,0,0,0,0,0,0,27,0,0,27,0,0,0,0,0,0,0,0,0,0,0,0,0,0,0,0,0,0,0,0,0,0,0,0,0,0,0,0,
0,0,0,0,0,0,0,0,0,0,0,0,0,0,0,0,0,0,0,0,0,0,0,0,0,0,0,0,27,0,0,27,0,0,0,0,0,0,0,0,0,0,0,0,0,0,0,0,0,0,0,0,0,0,0,0,0,0,0,0,
0,0,0,0,0,0,0,0,0,0,0,0,0,0,0,0,0,0,0,0,0,0,0,0,0,0,0,0,27,0,0,27,0,0,0,0,0,0,0,0,0,0,0,0,0,0,0,0,0,0,0,0,0,0,0,0,0,0,0,0,
0,0,0,0,0,0,0,0,0,0,0,0,0,0,0,0,0,0,0,0,0,0,0,0,0,0,0,0,27,0,0,27,0,0,0,0,0,0,0,0,0,0,0,0,0,0,0,0,0,0,0,0,0,0,0,0,0,0,0,0,
0,0,0,0,0,0,0,0,0,0,0,0,0,0,0,0,0,0,0,0,0,0,0,0,0,0,0,0,0,0,0,0,0,0,0,0,0,0,0,0,0,0,0,0,0,0,0,0,0,0,0,0,0,0,0,0,0,0,0,0
</data>
 </layer>
 <layer id="2" name="Buildings" width="60" height="40">
  <data encoding="csv">
482,482,482,482,482,482,482,482,482,482,482,482,482,482,482,482,482,482,482,482,482,482,482,482,482,482,2338,2339,2339,2339,2339,2339,2339,2340,482,482,482,482,482,482,482,482,482,482,482,482,482,482,482,482,482,482,482,482,482,482,482,482,482,482,
482,482,482,482,482,482,482,482,482,482,482,482,482,482,482,482,482,482,482,482,482,482,482,482,482,482,2370,2375,2375,2375,2375,2375,2375,2372,482,482,482,482,482,482,482,482,482,482,482,482,482,482,482,482,482,482,482,482,482,482,482,482,482,482,
482,482,482,482,482,482,482,482,482,482,482,482,482,482,482,482,482,482,482,482,482,482,482,482,482,482,2370,2407,2407,2407,2407,2407,2407,2372,482,482,482,482,482,482,482,482,482,482,482,482,482,482,482,482,482,482,482,482,482,482,482,482,482,482,
482,2338,2339,2339,2339,2339,2339,2339,2339,2339,2339,2339,2339,2339,2339,2339,2339,2339,2339,2339,2339,2339,2339,2339,2339,2340,2370,2439,2439,2439,2439,2439,2439,2372,2338,2339,2339,2339,2339,2339,2339,2339,2339,2339,2340,482,482,482,2338,2339,2339,2339,2339,2339,2339,2339,2339,2339,2340,482,
482,2370,2375,2375,2375,2375,2375,2375,2375,2375,2375,2375,2375,2375,2375,2375,2375,2375,2375,2375,2375,2375,2375,2375,2375,2372,2370,2518,2519,2519,2519,2519,2520,2372,2370,2375,2375,2375,2375,2375,2375,2375,2375,2375,2372,482,482,482,2370,2375,2375,2375,2375,2375,2375,2375,2375,2375,2372,482,
482,2370,2407,2407,2407,2407,2407,2407,2407,2407,2407,2407,2407,2407,2407,2407,2407,2407,2407,2407,2407,2407,2407,2407,2407,2372,2370,2550,2551,173,2551,2551,2552,2372,2370,2407,2407,2407,2407,2407,2407,2407,2407,2407,2372,482,482,482,2370,2407,2407,2407,2407,2407,2407,2407,2407,2407,2372,482,
482,2370,2439,2439,2439,2439,2439,2439,2439,2439,2439,2439,2439,2439,2439,2439,2439,2439,2439,2439,2439,2439,2439,2439,2439,2372,2370,2582,2583,2583,2583,2583,2584,2372,2370,2439,2439,2439,2439,2439,2439,2439,2439,2439,2374,2339,2339,2339,2373,2439,2439,2439,2439,2439,2439,2439,2439,2439,2372,482,
482,2370,977,16,17,16,17,0,977,16,17,16,17,0,16,17,16,17,0,882,16,17,16,17,977,2374,2373,0,0,0,0,0,0,2374,2373,2018,2019,2020,2021,2536,2018,2019,2020,2021,2375,2375,2375,2375,2375,0,0,1041,1042,1042,1043,0,882,0,2372,482,
482,2370,0,1326,0,0,0,0,0,1326,0,1326,0,0,1326,0,1326,0,0,0,1326,0,0,0,0,2375,2375,0,0,0,0,0,0,2375,2375,2050,2051,2052,2053,2568,2050,2051,2052,2053,2407,2407,2407,2407,2407,1230,1231,0,0,0,0,0,0,0,2372,482,
482,2370,0,0,0,1326,0,0,0,0,0,0,0,0,0,0,1326,0,0,0,0,0,1326,0,0,2407,2407,0,0,0,0,0,0,2407,2407,2082,2083,2084,2085,2568,2082,2083,2084,2085,2439,2439,2439,2439,2439,1262,1263,0,0,0,0,0,0,0,2372,482,
482,2370,0,18,19,18,19,977,0,18,19,18,19,0,18,19,18,19,0,0,18,19,18,19,0,2439,2439,0,0,0,0,0,0,2439,2439,2114,2115,2116,2117,2568,2114,2115,2116,2117,0,0,0,0,0,0,0,0,0,0,0,0,0,0,2372,482,
482,2370,0,16,17,16,17,0,0,16,17,16,17,0,16,17,16,17,883,0,16,17,16,17,0,0,0,0,0,0,0,0,0,0,0,0,0,0,0,0,0,0,4093,0,0,4093,0,4093,4093,0,0,4093,0,0,0,0,0,0,2372,482,
482,2370,0,1326,0,1326,0,0,0,1326,0,0,0,0,1326,0,1326,0,0,0,1326,0,1326,0,0,0,0,0,0,0,0,0,0,0,0,0,0,110,0,0,4823,4824,4825,4826,4824,4825,4826,4824,4825,4824,4825,4826,4827,0,0,0,0,0,2372,482,
482,2370,0,1326,0,0,0,0,0,0,0,1326,0,0,1326,0,1326,0,0,0,1326,0,0,0,0,2374,2373,0,0,0,0,0,0,2374,2373,0,0,0,0,4094,4823,4824,4825,4826,4824,4825,4826,4824,4825,4824,4825,4826,4827,0,0,0,2568,2569,2372,482,
482,2370,0,18,19,18,19,0,0,18,19,18,19,0,18,19,18,19,0,0,18,19,18,19,0,2375,2375,0,0,0,0,0,0,2375,2375,0,0,0,0,0,4823,4824,4825,4826,4824,4825,4826,4824,4825,4824,4825,4826,4827,0,0,0,2568,2569,2372,482,
482,2370,883,16,17,16,17,0,0,16,17,16,17,0,16,17,16,17,0,977,16,17,16,17,0,2407,2407,0,0,0,0,0,0,2407,2407,0,0,0,0,4094,4823,4824,4825,4826,4824,4825,4824,4825,4826,4824,4825,4826,4827,0,0,0,2568,2569,2372,482,
482,2370,0,1326,0,1326,0,0,0,1326,0,0,0,0,1326,0,1326,0,0,0,0,0,1326,0,0,2439,2439,0,0,0,0,0,0,2439,2439,0,0,0,0,0,4823,4824,4825,4826,4824,4825,4824,4825,4826,4824,4825,4826,4827,0,0,0,2568,2569,2372,482,
482,2370,0,0,0,0,0,0,0,1326,0,1326,0,0,0,0,0,0,0,0,1326,0,1326,0,0,0,0,0,0,0,0,0,0,0,0,0,0,0,0,0,4855,4856,4857,4858,4856,4857,4856,4857,4858,4856,4857,4858,4859,0,0,0,2568,2569,2372,482,
482,2370,0,18,19,18,19,0,977,18,19,18,19,0,18,19,18,19,977,0,18,19,18,19,0,0,0,0,0,0,0,0,0,0,0,0,0,0,0,0,0,0,4095,4095,0,4095,0,4095,0,0,0,4095,0,0,0,0,2568,2569,2372,482,
482,2370,977,16,17,16,17,0,0,16,17,16,17,0,16,17,16,17,0,0,16,17,16,17,0,2372,2370,0,0,0,0,0,0,2372,2370,0,0,0,0,0,0,0,0,0,0,0,0,0,0,208,0,0,0,0,0,0,0,0,2372,482,
482,2402,0,0,0,1326,0,0,0,0,0,1326,0,0,1326,0,1326,0,0,0,1326,0,1326,0,0,2404,2370,0,0,0,0,0,0,2372,2402,0,882,0,0,0,0,0,0,0,0,0,0,0,0,0,0,0,0,0,0,0,0,0,2404,482,
482,482,482,482,482,482,482,482,482,482,482,482,482,482,482,482,482,482,482,482,482,482,482,482,482,482,2370,0,0,0,175,177,0,2372,482,482,482,482,482,482,482,482,482,482,482,482,482,482,482,482,482,482,482,482,482,482,482,482,482,482,
482,2338,2339,2339,2339,2339,2339,2339,2339,2339,2339,2339,2339,2339,2339,2339,2339,2339,2339,2339,2339,2339,2339,2339,2339,2340,2370,0,0,0,0,0,0,2372,2338,2339,2339,2339,2339,2339,2339,2339,2339,2339,2339,2339,2339,2339,2339,2339,2339,2339,2339,2339,2339,2339,2339,2339,2340,482,
482,2370,2375,2375,2375,2375,2375,2375,2375,2375,2375,2375,2375,2375,2375,2375,2375,2375,2375,2375,2375,2375,2375,2375,2375,2372,2370,0,0,0,0,0,0,2372,2370,2375,2375,2375,2375,2375,2375,2375,2375,2375,2375,2375,2375,2375,2375,2375,2375,2375,2375,2375,2375,2375,2375,2375,2372,482,
482,2370,2407,2375,2407,2375,2407,2407,2407,2375,2407,2375,2407,2407,2407,2375,2407,2375,2407,2407,2407,2375,2407,2375,2407,2372,2370,0,0,0,0,0,0,2372,2370,2407,2407,2407,2407,2407,2407,2407,2407,2407,2407,2407,2407,2407,2407,2407,2407,2407,2407,2407,2407,2407,2407,2407,2372,482,
482,2370,2439,2407,2439,2407,2439,2439,2439,2407,2439,2407,2439,2439,2439,2407,2439,2407,2439,2439,2439,2407,2439,2407,2439,2372,2370,0,0,0,0,0,0,2372,2370,2439,2439,2439,2439,2439,2439,2439,2439,2439,2439,2439,2439,2439,2439,2439,2439,2439,2439,2439,2439,2439,2439,2439,2372,482,
482,2370,0,2439,55,2439,0,399,0,2439,55,2439,0,399,0,2439,55,2439,0,399,0,2439,55,2439,0,2374,2373,0,0,0,0,0,0,2374,2373,2375,2568,2569,0,0,2375,0,0,0,0,2375,0,0,0,0,2375,0,0,0,0,2375,0,883,2372,482,
482,2370,0,0,0,0,0,0,0,0,0,0,0,0,0,0,211,179,0,0,0,0,0,0,0,2375,2375,0,0,0,0,0,0,2375,2375,2407,86,213,0,89,2407,86,0,215,89,2407,86,217,0,89,2407,86,219,0,89,2407,0,0,2372,482,
482,2370,0,0,0,0,0,0,0,0,0,0,0,0,0,0,0,0,0,0,0,0,0,0,0,2407,2407,0,0,0,0,0,0,2407,2407,2439,101,102,103,104,2439,101,102,103,104,2439,101,102,103,104,2439,101,102,103,104,2439,0,0,2372,482,
482,2370,0,0,0,0,0,0,0,0,0,0,0,0,0,0,0,0,0,0,0,0,0,0,0,2439,2439,0,0,0,0,0,0,2439,2439,0,0,209,0,0,0,0,0,202,0,0,0,198,0,0,0,0,0,0,0,0,0,0,2372,482,
482,2370,0,0,0,0,0,0,0,0,0,0,0,0,0,0,0,0,0,0,0,0,0,0,0,207,0,0,0,0,0,0,0,0,0,0,0,0,0,0,0,0,0,0,0,0,0,0,0,0,0,0,200,0,0,0,0,0,2372,482,
482,2370,0,0,0,0,0,0,0,0,0,0,0,0,0,0,0,0,0,0,0,0,0,0,0,0,0,0,0,0,0,0,0,0,0,0,0,0,0,0,0,0,0,0,0,0,0,0,0,0,0,0,0,0,0,0,0,0,2372,482,
482,2370,0,0,0,0,0,0,0,0,0,0,0,0,0,0,0,0,0,0,0,0,0,0,0,0,0,0,0,0,0,0,0,0,0,0,0,0,0,0,0,0,0,0,0,0,0,0,0,0,0,0,210,0,0,0,0,0,2372,482,
482,2370,0,0,0,0,0,111,0,0,0,0,0,0,0,0,0,0,0,0,0,0,0,0,0,0,0,0,0,0,0,0,0,0,0,0,0,0,0,0,0,0,0,0,0,0,0,0,0,0,0,0,0,0,0,0,0,0,2372,482,
482,2370,0,0,0,0,0,0,0,0,0,0,0,0,0,0,0,0,0,0,0,0,0,0,0,0,0,0,0,0,0,0,0,0,0,0,0,0,0,0,0,0,0,0,0,0,0,0,0,0,0,0,0,0,0,0,0,0,2372,482,
482,2402,0,0,0,0,0,0,0,0,0,0,0,0,0,0,0,0,0,0,0,0,0,0,0,0,0,0,0,0,0,0,0,0,882,0,0,0,0,0,0,0,0,0,0,0,0,0,2568,2569,2568,2569,2568,2569,2568,2569,2568,2569,2404,482,
482,482,482,482,482,482,482,482,482,482,482,482,482,482,482,482,482,482,482,482,482,482,482,482,482,482,2370,0,0,0,0,0,0,2372,482,482,482,482,482,482,482,482,482,482,482,482,482,482,482,482,482,482,482,482,482,482,482,482,482,482,
482,482,482,482,482,482,482,482,482,482,482,482,482,482,482,482,482,482,482,482,482,482,482,482,482,482,2370,0,0,0,0,0,0,2372,482,482,482,482,482,482,482,482,482,482,482,482,482,482,482,482,482,482,482,482,482,482,482,482,482,482,
482,482,482,482,482,482,482,482,482,482,482,482,482,482,482,482,482,482,482,482,482,482,482,482,482,482,2370,0,0,0,0,0,0,2404,482,482,482,482,482,482,482,482,482,482,482,482,482,482,482,482,482,482,482,482,482,482,482,482,482,482,
482,482,482,482,482,482,482,482,482,482,482,482,482,482,482,482,482,482,482,482,482,482,482,482,482,482,482,482,482,482,482,482,482,482,482,482,482,482,482,482,482,482,482,482,482,482,482,482,482,482,482,482,482,482,482,482,482,482,482,482
</data>
 </layer>
 <layer id="11" name="Buildings2" width="60" height="40">
  <data encoding="csv">
0,0,0,0,0,0,0,0,0,0,0,0,0,0,0,0,0,0,0,0,0,0,0,0,0,0,0,0,0,0,0,0,0,0,0,0,0,0,0,0,0,0,0,0,0,0,0,0,0,0,0,0,0,0,0,0,0,0,0,0,
0,0,0,0,0,0,0,0,0,0,0,0,0,0,0,0,0,0,0,0,0,0,0,0,0,0,0,0,56,57,58,59,0,0,0,0,0,0,0,0,0,0,0,0,0,0,0,0,0,0,0,0,0,0,0,0,0,0,0,0,
0,0,0,0,0,0,0,0,0,0,0,0,0,0,0,0,0,0,0,0,0,0,0,0,0,0,0,0,71,72,73,74,0,0,0,0,0,0,0,0,0,0,0,0,0,0,0,0,0,0,0,0,0,0,0,0,0,0,0,0,
0,0,0,0,0,0,0,0,0,0,0,0,0,0,0,0,0,0,0,0,0,0,0,0,0,0,0,0,0,0,0,0,0,0,0,0,0,0,0,0,0,0,0,0,0,0,0,0,0,0,0,0,0,0,0,0,0,0,0,0,
0,0,0,0,0,0,0,3816,0,0,6700,6701,0,0,0,0,0,3889,0,0,0,0,0,3956,3957,0,0,0,0,158,0,0,0,0,0,0,0,0,0,0,0,0,3956,3957,0,0,0,0,0,0,0,6554,6555,6556,6557,0,0,0,0,0,
0,0,0,0,0,3847,0,3848,0,0,6732,6733,0,3857,3858,0,0,3921,0,0,0,0,0,0,3816,0,0,0,0,2551,0,0,0,0,0,0,0,0,0,0,0,0,0,0,0,0,0,0,0,0,0,6586,6587,6588,6589,0,0,0,0,0,
0,0,0,1,2,1,2,0,0,1,2,1,2,0,1,2,1,2,0,850,1,2,1,2,3848,0,0,0,0,0,0,0,0,0,0,0,0,0,0,0,0,0,0,0,0,0,0,0,0,0,0,0,0,0,0,0,0,0,0,0,
0,0,0,0,0,0,0,0,0,0,0,0,0,0,0,0,0,0,0,0,0,0,0,0,0,0,0,0,0,0,0,0,0,0,0,0,0,0,0,0,0,0,0,0,131,132,133,134,135,0,0,0,0,0,0,0,0,0,0,0,
0,0,0,0,0,0,0,0,0,0,0,0,0,0,0,0,0,0,0,0,0,0,0,0,0,0,0,0,0,0,0,0,0,0,0,0,0,0,0,0,0,0,0,0,146,147,148,149,150,0,0,0,0,0,0,0,0,0,0,0,
0,0,0,3,4,3,4,0,0,3,4,3,4,0,3,4,3,4,0,0,3,4,3,4,0,0,0,0,0,0,0,0,0,0,0,0,0,0,0,0,0,0,0,0,0,0,0,0,0,0,0,0,0,0,0,0,0,0,0,0,
0,0,0,1,2,1,2,0,0,1,2,1,2,0,1,2,1,2,0,0,1,2,1,2,0,0,0,0,0,0,0,0,0,0,0,0,0,0,0,0,0,0,0,0,0,0,0,0,0,0,0,0,0,0,0,0,0,0,0,0,
0,0,0,0,0,0,0,0,0,0,0,0,0,0,0,0,0,0,0,0,0,0,0,0,0,0,0,0,0,0,0,0,0,0,0,0,0,0,0,0,0,0,0,0,0,0,0,0,0,0,0,0,0,0,0,0,0,0,0,0,
0,0,0,0,0,0,0,0,0,0,0,0,0,0,0,0,0,0,0,0,0,0,0,0,0,0,0,0,0,0,0,0,0,0,0,0,0,0,0,0,0,0,2803,2804,0,0,0,0,0,0,0,0,0,0,0,0,0,0,0,0,
0,0,0,3,4,3,4,0,0,3,4,3,4,0,3,4,3,4,0,0,3,4,3,4,0,0,0,0,0,0,0,0,0,0,0,0,0,0,0,0,0,0,2835,2836,0,0,0,0,0,0,0,0,0,0,0,0,0,0,0,0,
0,0,0,1,2,1,2,0,0,1,2,1,2,0,1,2,1,2,0,0,1,2,1,2,0,0,0,0,0,0,0,0,0,0,0,0,0,0,0,0,0,0,0,0,0,0,0,0,0,0,2772,2773,0,0,0,0,0,0,0,0,
0,0,0,0,0,0,0,0,0,0,0,0,0,0,0,0,0,0,0,0,0,0,0,0,0,0,0,0,0,0,0,0,0,0,0,0,0,0,0,0,0,849,0,0,0,0,0,0,0,0,0,0,0,0,0,0,0,0,0,0,
0,0,0,0,0,0,0,0,0,0,0,0,0,0,0,0,0,0,0,0,0,0,0,0,0,0,0,0,0,0,0,0,0,0,0,0,0,0,0,0,0,0,0,0,0,0,0,1131,0,0,0,0,0,0,0,0,0,0,0,0,
0,0,0,3,4,3,4,0,0,3,4,3,4,0,3,4,3,4,0,0,3,4,3,4,0,0,0,0,0,0,0,0,0,0,0,0,0,0,0,0,0,0,0,0,0,0,0,0,0,0,0,0,0,0,0,0,0,0,0,0,
0,0,0,1,2,1,2,0,0,1,2,1,2,0,1,2,1,2,0,0,1,2,1,2,0,0,0,0,0,0,0,0,0,0,0,0,0,0,0,0,0,0,0,0,0,0,0,0,0,0,0,0,0,0,0,0,0,0,0,0,
0,0,0,0,0,0,0,0,0,0,0,0,0,0,0,0,0,0,0,0,0,0,0,0,0,0,0,0,0,0,0,0,0,0,0,0,0,0,0,0,0,0,0,0,0,0,0,0,0,0,0,0,0,0,0,0,0,0,0,0,
0,0,0,0,0,0,0,0,0,0,0,0,0,0,0,0,0,0,0,0,0,0,0,0,0,0,0,0,0,0,0,0,0,0,0,0,0,0,0,0,0,0,0,0,0,0,0,0,0,0,0,0,0,0,0,0,0,0,0,0,
0,0,0,0,0,0,0,0,0,0,0,0,0,0,0,0,0,0,0,0,0,0,0,0,0,0,0,0,0,0,0,0,0,0,0,0,0,0,0,0,0,0,0,0,0,0,0,0,0,0,0,0,0,0,0,0,0,0,0,0,
0,0,0,0,0,0,0,335,0,0,0,0,0,335,0,0,0,0,0,335,0,0,0,0,0,0,0,0,0,0,0,0,0,0,0,0,0,0,0,0,0,0,0,0,0,0,0,0,0,0,0,0,0,0,0,0,0,0,0,0,
0,0,0,0,0,0,350,351,352,0,0,0,350,351,352,0,0,0,350,351,352,0,0,0,0,0,0,0,0,0,0,0,0,0,0,0,0,0,0,0,0,0,0,0,0,0,0,0,0,0,0,0,0,0,0,3956,3957,0,0,0,
0,0,0,0,0,0,366,367,368,0,0,0,366,367,368,0,0,0,366,367,368,0,0,0,0,0,0,0,0,0,0,0,0,0,0,0,0,0,0,0,0,0,0,0,0,0,0,0,0,0,0,0,0,0,0,0,0,0,0,0,
0,0,0,0,41,0,0,383,0,0,26,0,0,383,0,0,40,0,0,383,0,0,40,0,0,0,0,0,0,0,0,0,0,0,0,0,0,0,0,0,0,0,0,0,0,0,0,0,0,0,0,0,0,0,0,0,0,0,0,0,
0,0,0,0,0,0,0,0,0,0,0,0,0,0,0,0,0,0,0,0,0,0,0,0,0,0,0,0,0,0,0,0,0,0,0,0,0,0,0,0,0,0,0,0,0,0,0,0,0,0,0,0,0,0,0,0,0,0,0,0,
0,0,0,0,0,0,0,0,0,0,0,0,0,0,0,0,0,0,0,0,0,0,0,0,0,0,0,0,0,0,0,0,0,0,0,0,0,87,88,0,0,0,87,88,0,0,0,87,88,0,0,0,87,88,0,0,0,0,0,0,
0,0,0,0,0,0,0,0,0,0,0,0,0,0,0,0,0,0,0,0,0,0,0,0,0,0,0,0,0,0,0,0,0,0,0,0,116,0,0,0,0,117,0,0,0,0,118,183,0,0,0,119,0,0,0,0,0,0,0,0,
0,0,0,0,0,0,0,0,0,0,0,0,0,0,0,0,0,0,0,0,0,0,0,0,0,0,0,0,0,0,0,0,0,0,0,0,0,0,0,0,0,0,0,0,0,0,0,0,0,0,0,0,0,0,0,0,0,0,0,0,
0,0,0,0,0,0,0,0,0,0,0,0,0,0,0,0,0,0,0,0,0,0,0,0,0,0,0,0,0,0,0,0,0,0,0,0,0,0,0,0,0,0,0,0,0,0,0,0,0,0,0,0,0,0,0,0,0,0,0,0,
0,0,0,0,0,0,0,0,0,0,0,0,0,0,0,0,0,0,0,0,0,0,0,0,0,0,0,0,0,0,0,0,0,0,0,0,0,0,0,0,0,0,0,0,0,0,0,0,0,0,0,0,0,0,0,0,0,0,0,0,
0,0,0,0,0,0,0,0,0,0,0,0,0,0,0,0,0,0,0,0,0,0,0,0,0,0,0,0,0,0,0,0,0,0,0,0,0,0,0,0,0,0,0,0,0,0,0,0,0,0,0,0,0,0,0,0,0,0,0,0,
0,0,0,0,0,0,0,0,0,0,0,0,0,0,0,0,0,0,0,0,0,0,0,0,0,0,0,0,0,0,0,0,0,0,0,0,0,0,0,0,0,0,0,0,0,0,0,0,0,0,0,0,0,0,0,0,0,0,0,0,
0,0,0,0,0,0,0,0,0,0,0,0,0,0,0,0,0,0,0,0,0,0,0,0,0,0,0,0,0,0,0,0,0,0,0,0,0,0,0,0,0,0,0,0,0,0,0,0,0,0,0,0,0,0,0,0,0,0,0,0,
0,0,0,0,0,0,0,0,0,0,0,0,0,0,0,0,0,0,0,0,0,0,0,0,0,0,0,0,0,0,0,0,0,0,0,0,0,0,0,0,0,0,0,0,0,0,0,0,0,0,0,0,0,0,0,0,0,0,0,0,
0,0,0,0,0,0,0,0,0,0,0,0,0,0,0,0,0,0,0,0,0,0,0,0,0,0,0,0,0,0,0,0,0,0,0,0,0,0,0,0,0,0,0,0,0,0,0,0,0,0,0,0,0,0,0,0,0,0,0,0,
0,0,0,0,0,0,0,0,0,0,0,0,0,0,0,0,0,0,0,0,0,0,0,0,0,0,0,0,0,0,0,0,0,0,0,0,0,0,0,0,0,0,0,0,0,0,0,0,0,0,0,0,0,0,0,0,0,0,0,0,
0,0,0,0,0,0,0,0,0,0,0,0,0,0,0,0,0,0,0,0,0,0,0,0,0,0,0,0,0,0,0,0,0,0,0,0,0,0,0,0,0,0,0,0,0,0,0,0,0,0,0,0,0,0,0,0,0,0,0,0,
0,0,0,0,0,0,0,0,0,0,0,0,0,0,0,0,0,0,0,0,0,0,0,0,0,0,0,0,0,0,0,0,0,0,0,0,0,0,0,0,0,0,0,0,0,0,0,0,0,0,0,0,0,0,0,0,0,0,0,0
</data>
 </layer>
 <layer id="12" name="Buildings3" width="60" height="40">
  <data encoding="csv">
0,0,0,0,0,0,0,0,0,0,0,0,0,0,0,0,0,0,0,0,0,0,0,0,0,0,0,0,0,0,0,0,0,0,0,0,0,0,0,0,0,0,0,0,0,0,0,0,0,0,0,0,0,0,0,0,0,0,0,0,
0,0,0,0,0,0,0,0,0,0,0,0,0,0,0,0,0,0,0,0,0,0,0,0,0,0,0,0,0,0,0,3956,3957,0,0,0,0,0,0,0,0,0,0,0,0,0,0,0,0,0,0,0,0,0,0,0,0,0,0,0,
0,0,0,0,0,0,0,0,0,0,0,0,0,0,0,0,0,0,0,0,0,0,0,0,0,0,0,0,0,0,0,0,0,0,0,0,0,0,0,0,0,0,0,0,0,0,0,0,0,0,0,0,0,0,0,0,0,0,0,0,
0,0,0,0,0,0,0,0,0,0,0,0,0,0,0,0,0,0,0,0,0,0,0,0,0,0,0,0,0,0,0,0,0,0,0,0,0,0,0,0,0,0,0,0,0,0,0,0,0,0,0,0,0,0,0,0,0,0,0,0,
0,0,0,0,0,0,0,0,0,0,0,0,0,0,0,0,0,0,0,0,0,0,0,0,0,0,0,0,0,0,0,0,0,0,0,0,0,0,0,0,0,0,0,0,0,0,0,0,0,0,0,0,0,0,0,0,0,0,0,0,
0,0,0,0,0,0,0,0,0,0,0,0,0,0,0,0,0,0,0,0,0,0,0,0,0,0,0,0,0,0,0,0,0,0,0,0,0,0,0,0,0,0,0,0,0,0,0,0,0,0,0,0,0,0,0,0,0,0,0,0,
0,0,0,5,6,0,0,0,0,5,6,913,0,0,5,6,5,6,0,0,31,6,31,6,0,0,0,0,0,0,0,0,0,0,0,0,0,0,0,0,0,0,0,0,0,0,0,0,0,0,0,0,0,0,0,0,0,0,0,0,
0,0,0,0,0,0,0,0,0,0,0,0,0,0,0,0,127,0,0,0,151,0,0,0,0,0,0,0,0,0,0,0,0,0,0,0,0,0,0,0,0,0,0,0,0,0,0,0,0,0,0,0,0,0,0,0,0,0,0,0,
0,0,0,0,0,0,0,0,0,0,0,0,0,0,0,0,142,0,0,0,166,0,0,0,0,0,0,0,0,0,0,0,0,0,0,0,0,0,0,0,0,0,0,0,0,0,0,0,0,0,0,0,0,0,0,0,0,0,0,0,
0,0,0,20,21,20,21,0,0,20,21,20,21,0,20,21,20,21,0,0,20,21,20,21,0,0,0,0,0,0,0,0,0,0,0,0,0,0,0,0,0,0,0,0,0,0,0,0,0,0,0,0,0,0,0,0,0,0,0,0,
0,0,0,5,6,5,6,0,0,5,6,5,6,0,5,6,0,0,0,0,5,6,0,0,0,0,0,0,0,0,0,0,0,0,0,0,0,0,0,0,0,0,0,0,0,0,0,0,0,0,0,0,0,0,0,0,0,0,0,0,
0,0,0,129,0,123,0,0,0,0,0,0,0,0,0,0,0,0,0,0,0,0,0,0,0,0,0,0,0,0,0,0,0,0,0,0,0,0,0,0,0,0,0,0,0,0,0,0,0,0,0,0,0,0,0,0,0,0,0,0,
0,0,0,144,0,138,0,0,0,0,0,0,0,0,0,0,0,0,0,0,0,0,0,0,0,0,0,0,0,0,0,0,0,0,0,0,0,0,0,0,0,0,0,0,0,0,0,0,0,0,0,0,0,0,0,0,0,0,0,0,
0,0,0,20,21,20,21,0,0,20,21,0,0,0,20,21,20,21,0,0,20,21,20,21,0,0,0,0,0,0,0,0,0,0,0,0,0,0,0,0,0,0,0,0,0,0,0,0,0,0,0,0,0,0,0,0,0,0,0,0,
0,0,0,31,6,5,6,0,0,0,0,5,6,0,5,6,0,0,0,0,5,6,5,6,0,0,0,0,0,0,0,0,0,0,0,0,0,0,0,0,0,0,0,0,0,0,0,0,0,0,0,0,0,0,0,0,0,0,0,0,
0,0,0,157,0,154,0,0,0,0,0,0,0,0,121,0,0,0,0,0,0,0,0,0,0,0,0,0,0,0,0,0,0,0,0,0,0,0,0,0,0,0,0,0,0,0,0,0,0,0,0,0,0,0,0,0,0,0,0,0,
0,0,0,172,0,169,0,0,0,0,0,0,0,0,136,0,0,0,0,0,0,0,0,0,0,0,0,0,0,0,0,0,0,0,0,0,0,0,0,0,0,0,0,0,0,0,0,0,0,0,0,0,0,0,0,0,0,0,0,0,
0,0,0,20,21,20,21,0,0,20,21,20,21,0,20,21,20,21,0,0,20,21,20,21,0,0,0,0,0,0,0,0,0,0,0,0,0,0,0,0,0,0,0,0,0,0,0,0,0,0,0,0,0,0,0,0,0,0,0,0,
0,0,0,5,6,5,6,0,0,31,6,5,6,0,5,6,5,6,0,0,5,6,5,6,0,0,0,0,0,0,0,0,0,0,0,0,0,0,0,0,0,0,0,0,0,0,0,0,0,0,0,0,0,0,0,0,0,0,0,0,
0,0,0,0,0,0,0,0,913,0,0,0,0,0,0,0,0,0,0,0,125,0,0,0,0,0,0,0,0,0,0,0,0,0,0,0,0,0,0,0,0,0,0,0,0,0,0,0,0,0,0,0,0,0,0,0,0,0,0,0,
0,0,0,0,0,0,0,0,0,0,0,0,0,0,0,0,0,0,0,0,140,0,0,0,0,0,0,0,0,0,0,0,0,0,0,0,0,0,0,0,0,0,0,0,0,0,0,0,0,0,0,0,0,0,0,0,0,0,0,0,
0,0,0,0,0,0,0,0,0,0,0,0,0,0,0,0,0,0,0,0,0,0,0,0,0,0,0,0,0,0,0,0,0,0,0,0,0,0,0,0,0,0,0,0,0,0,0,0,0,0,0,0,0,0,0,0,0,0,0,0,
0,0,0,0,0,0,0,0,0,0,0,0,0,0,0,0,0,0,0,0,0,0,0,0,0,0,0,0,0,0,0,0,0,0,0,0,0,0,0,0,0,0,0,0,0,0,0,0,0,0,0,0,0,0,0,0,0,0,0,0,
0,0,0,0,0,0,0,0,0,0,0,0,0,0,0,0,0,0,0,0,0,0,0,0,0,0,0,0,0,0,0,0,0,0,0,0,0,0,0,0,0,0,0,0,0,0,0,0,0,0,0,0,0,0,0,0,0,0,0,0,
0,0,0,0,0,0,0,0,0,0,0,0,0,0,0,0,0,0,0,0,0,0,0,0,0,0,0,0,0,0,0,0,0,0,0,0,0,0,0,0,0,0,0,0,0,0,0,0,0,0,0,0,0,0,0,0,0,0,0,0,
0,0,0,0,0,0,0,0,0,0,0,0,0,0,0,0,181,0,0,0,0,0,0,0,0,0,0,0,0,0,0,0,0,0,0,0,0,0,0,0,0,0,0,0,0,0,0,0,0,0,0,0,0,0,0,0,0,0,0,0,
0,0,0,0,0,0,0,0,0,0,0,0,0,0,0,0,196,0,0,0,0,0,0,0,0,0,0,0,0,0,0,0,0,0,0,0,0,0,0,0,0,0,0,0,0,0,0,0,0,0,0,0,0,0,0,0,0,0,0,0,
0,0,0,0,0,0,0,0,0,0,0,0,0,0,0,0,0,0,0,0,0,0,0,0,0,0,0,0,0,0,0,0,0,0,0,0,0,0,99,100,0,0,0,99,100,0,0,0,99,100,0,0,0,99,100,0,0,0,0,0,
0,0,0,0,0,0,0,0,0,0,0,0,0,0,0,0,0,0,0,0,0,0,0,0,0,0,0,0,0,0,0,0,0,0,0,0,0,0,114,115,0,0,0,114,115,0,0,0,114,115,0,0,0,114,115,0,0,0,0,0,
0,0,0,0,0,0,0,0,0,0,0,0,0,0,0,0,0,0,0,0,0,0,0,0,0,0,0,0,0,0,0,0,0,0,0,0,0,0,0,0,0,0,0,0,0,0,0,0,0,0,0,0,0,0,0,0,0,0,0,0,
0,0,0,0,0,0,0,0,0,0,0,0,0,0,0,0,0,0,0,0,0,0,0,0,0,0,0,0,0,0,0,0,0,0,0,0,0,0,0,0,0,0,0,0,0,0,0,0,0,0,0,0,0,0,0,0,0,0,0,0,
0,0,0,0,0,0,0,0,0,0,0,0,0,0,0,0,0,0,0,0,0,0,0,0,0,0,0,0,0,0,0,0,0,0,0,0,0,0,0,0,0,0,0,0,0,0,0,0,0,0,0,0,0,0,0,0,0,0,0,0,
0,0,0,0,0,0,0,0,0,0,0,0,0,0,0,0,0,0,0,0,0,0,0,0,0,0,0,0,0,0,0,0,0,0,0,0,0,0,0,0,0,0,0,0,0,0,0,0,0,0,0,0,0,0,0,0,0,0,0,0,
0,0,0,0,0,0,0,0,0,0,0,0,0,0,0,0,0,0,0,0,0,0,0,0,0,0,0,0,0,0,0,0,0,0,0,0,0,0,0,0,0,0,0,0,0,0,0,0,0,0,0,0,0,0,0,0,0,0,0,0,
0,0,0,0,0,0,0,0,0,0,0,0,0,0,0,0,0,0,0,0,0,0,0,0,0,0,0,0,0,0,0,0,0,0,0,0,0,0,0,0,0,0,0,0,0,0,0,0,0,0,0,0,0,0,0,0,0,0,0,0,
0,0,0,0,0,0,0,0,0,0,0,0,0,0,0,0,0,0,0,0,0,0,0,0,0,0,0,0,0,0,0,0,0,0,0,0,0,0,0,0,0,0,0,0,0,0,0,0,0,0,0,0,0,0,0,0,0,0,0,0,
0,0,0,0,0,0,0,0,0,0,0,0,0,0,0,0,0,0,0,0,0,0,0,0,0,0,0,0,0,0,0,0,0,0,0,0,0,0,0,0,0,0,0,0,0,0,0,0,0,0,0,0,0,0,0,0,0,0,0,0,
0,0,0,0,0,0,0,0,0,0,0,0,0,0,0,0,0,0,0,0,0,0,0,0,0,0,0,0,0,0,0,0,0,0,0,0,0,0,0,0,0,0,0,0,0,0,0,0,0,0,0,0,0,0,0,0,0,0,0,0,
0,0,0,0,0,0,0,0,0,0,0,0,0,0,0,0,0,0,0,0,0,0,0,0,0,0,0,0,0,0,0,0,0,0,0,0,0,0,0,0,0,0,0,0,0,0,0,0,0,0,0,0,0,0,0,0,0,0,0,0,
0,0,0,0,0,0,0,0,0,0,0,0,0,0,0,0,0,0,0,0,0,0,0,0,0,0,0,0,0,0,0,0,0,0,0,0,0,0,0,0,0,0,0,0,0,0,0,0,0,0,0,0,0,0,0,0,0,0,0,0
</data>
 </layer>
 <layer id="3" name="Paths" width="60" height="40" visible="0">
  <data encoding="csv">
0,0,0,0,0,0,0,0,0,0,0,0,0,0,0,0,0,0,0,0,0,0,0,0,0,0,0,0,0,0,0,0,0,0,0,0,0,0,0,0,0,0,0,0,0,0,0,0,0,0,0,0,0,0,0,0,0,0,0,0,
0,0,0,0,0,0,0,0,0,0,0,0,0,0,0,0,0,0,0,0,0,0,0,0,0,0,0,0,6954,6954,6954,6954,0,0,0,0,0,0,0,0,0,0,0,0,0,0,0,0,0,0,0,0,0,0,0,0,0,0,0,0,
0,0,0,0,0,0,0,0,0,0,0,0,0,0,0,0,0,0,0,0,0,0,0,0,0,0,0,0,6954,6954,6954,6954,0,0,0,0,0,0,0,0,0,0,0,0,0,0,0,0,0,0,0,0,0,0,0,0,0,0,0,0,
0,0,0,0,0,0,0,0,0,0,0,0,0,0,0,0,0,0,0,0,0,0,0,0,0,0,0,0,0,0,0,0,0,0,0,0,0,0,0,0,0,0,0,0,0,0,0,0,0,0,0,0,0,0,0,0,0,0,0,0,
0,0,0,0,0,0,0,0,0,0,0,0,0,0,0,0,0,0,0,0,0,0,0,0,0,0,0,0,0,0,0,0,6954,0,0,0,0,0,0,0,0,0,0,0,0,0,0,0,0,0,0,0,0,0,0,0,0,0,0,0,
0,0,0,0,0,0,0,0,0,0,0,0,0,0,0,0,0,0,0,0,0,0,0,0,0,0,0,0,0,0,0,0,6954,0,0,0,0,0,0,0,0,0,0,0,0,0,0,0,0,0,0,0,0,0,0,0,0,0,0,0,
0,0,0,6954,0,0,0,0,0,6954,0,0,0,0,6954,0,6954,0,0,0,6954,0,6954,0,0,0,0,0,0,0,0,0,0,0,0,0,0,0,0,0,0,0,0,0,0,0,0,0,0,0,0,0,0,0,0,0,0,0,0,0,
0,0,0,0,0,0,0,0,0,0,0,0,0,0,0,0,0,0,0,0,0,0,0,0,0,0,0,0,0,0,0,0,0,0,0,0,0,0,0,0,0,0,0,0,6954,6954,6954,6954,6954,0,0,0,0,0,0,0,0,0,0,0,
0,0,0,0,0,0,0,0,0,0,0,0,0,0,0,0,0,0,0,0,0,0,0,0,0,0,0,0,0,0,0,0,0,0,0,0,0,0,0,0,0,0,0,0,6954,6954,6954,6954,6954,0,0,0,0,0,0,0,0,0,0,0,
0,0,0,0,0,6954,0,0,0,6954,0,0,0,0,6954,0,6954,0,0,0,0,0,6954,0,0,0,0,0,0,0,0,0,0,0,0,0,0,0,0,0,0,0,0,0,0,0,0,0,0,0,0,0,0,0,0,0,0,0,0,0,
0,0,0,6954,0,6954,0,0,0,6954,0,6954,0,0,6954,0,0,0,0,0,6954,0,0,0,0,0,0,0,0,0,0,0,0,0,0,0,0,0,0,0,0,0,0,0,0,0,0,0,0,0,0,0,0,0,0,0,0,0,0,0,
0,0,0,0,0,0,0,0,0,0,0,0,0,0,0,0,0,0,0,0,0,0,0,0,0,0,0,0,0,0,0,0,0,0,0,0,0,0,0,0,0,0,0,0,0,0,0,0,0,0,0,0,0,2147487710,0,0,0,0,0,0,
0,0,0,0,0,0,0,0,0,0,0,0,0,0,0,0,0,0,0,0,0,0,0,0,0,0,0,0,0,0,0,0,0,0,0,0,0,0,0,0,0,0,0,0,0,0,0,0,0,0,0,0,0,0,0,0,0,0,0,0,
0,0,0,6954,0,6954,0,0,0,0,0,0,0,0,0,0,6954,0,0,0,6954,0,6954,0,0,0,0,0,0,0,0,0,0,0,0,0,0,0,0,0,0,0,0,0,0,0,0,0,0,0,0,0,0,0,0,0,0,0,0,0,
0,0,0,6954,0,6954,0,0,0,0,0,6954,0,0,6954,0,0,0,0,0,6954,0,6954,0,0,0,0,0,0,0,0,0,0,0,0,0,0,0,0,0,0,0,0,0,0,0,0,0,0,0,0,0,0,2147487710,0,0,0,0,0,0,
0,0,0,0,0,0,0,0,0,0,0,0,0,0,0,0,0,0,0,0,0,0,0,0,0,0,0,0,0,0,0,0,0,0,0,0,0,0,0,0,0,0,0,0,0,0,0,0,0,0,0,0,0,2147487710,0,0,0,0,0,0,
0,0,0,0,0,0,0,0,0,0,0,0,0,0,0,0,0,0,0,0,0,0,0,0,0,0,0,0,0,0,0,0,0,0,0,0,0,0,0,0,0,0,0,0,0,0,0,0,0,0,0,0,0,0,0,0,0,0,0,0,
0,0,0,6954,0,6954,0,0,0,6954,0,6954,0,0,6954,0,0,0,0,0,6954,0,6954,0,0,0,0,0,0,0,0,0,0,0,0,0,0,0,0,0,0,0,0,0,0,0,0,0,0,0,0,0,0,0,0,0,0,0,0,0,
0,0,0,6954,0,6954,0,0,0,6954,0,6954,0,0,6954,0,6954,0,0,0,6954,0,6954,0,0,0,0,0,0,0,0,0,0,0,0,0,0,0,0,0,0,0,0,0,0,0,0,0,0,0,0,0,0,0,0,0,0,0,0,0,
0,0,0,0,0,0,0,0,0,0,0,0,0,0,0,0,0,0,0,0,0,0,0,0,0,0,0,0,0,0,0,0,0,0,0,0,0,0,0,0,0,0,0,0,0,0,0,0,0,0,0,0,0,0,0,0,0,0,0,0,
0,0,0,0,0,0,0,0,0,0,0,0,0,0,0,0,0,0,0,0,0,0,0,0,0,0,0,0,0,0,0,0,0,0,0,0,0,0,0,0,0,0,0,0,0,0,0,0,0,0,0,0,0,0,0,0,0,0,0,0,
0,0,0,0,0,0,0,0,0,0,0,0,0,0,0,0,0,0,0,0,0,0,0,0,0,0,0,0,0,0,0,0,0,0,0,0,0,0,0,0,0,0,0,0,0,0,0,0,0,0,0,0,0,0,0,0,0,0,0,0,
0,0,0,0,0,0,0,0,0,0,0,0,0,0,0,0,0,0,0,0,0,0,0,0,0,0,0,0,0,0,0,0,0,0,0,0,0,0,0,0,0,0,0,0,0,0,0,0,0,0,0,0,0,0,0,0,0,0,0,0,
0,0,0,0,0,0,0,0,0,0,0,0,0,0,0,0,0,0,0,0,0,0,0,0,0,0,0,0,0,0,0,0,0,0,0,0,0,0,0,0,0,0,0,0,0,0,0,0,0,0,0,0,0,0,0,0,0,0,0,0,
0,0,0,0,0,0,0,0,0,0,0,0,0,0,0,0,0,0,0,0,0,0,0,0,0,0,0,0,0,0,0,0,0,0,0,0,0,0,0,0,0,0,0,0,0,0,0,0,0,0,0,0,0,0,0,0,0,0,0,0,
0,0,0,0,0,0,0,0,0,0,0,0,0,0,0,0,6954,0,0,0,0,0,6954,0,0,0,0,0,0,0,0,0,0,0,0,0,0,0,0,0,0,0,0,0,0,0,0,0,0,0,0,0,0,0,0,0,0,0,0,0,
0,0,0,0,0,0,0,0,0,0,0,0,0,0,0,0,0,0,0,0,0,0,0,0,0,0,0,0,0,0,0,0,0,0,0,0,0,0,0,0,0,0,0,0,0,0,0,0,0,0,0,0,0,0,0,0,0,0,0,0,
0,0,0,0,0,0,0,0,0,0,0,0,0,0,0,0,0,0,0,0,0,0,0,0,0,0,0,0,0,0,0,0,0,0,0,0,0,0,6954,0,0,0,0,6954,0,0,0,0,6954,0,0,0,0,6954,0,0,0,0,0,0,
0,0,0,0,0,0,0,0,0,0,0,0,0,0,0,0,0,0,0,0,0,0,0,0,0,0,0,0,0,0,0,0,0,0,0,0,0,0,6954,0,0,0,0,6954,0,0,0,0,6954,0,0,0,0,6954,0,0,0,0,0,0,
0,0,0,0,0,0,0,0,0,0,0,0,0,0,0,0,0,0,0,0,0,0,0,0,0,0,0,0,0,0,0,0,0,0,0,0,0,0,0,0,0,0,0,0,0,0,0,0,0,0,0,0,0,0,0,0,0,0,0,0,
0,0,0,0,0,0,0,0,0,0,0,0,0,0,0,0,0,0,0,0,0,0,0,0,0,0,0,0,0,0,0,0,0,0,0,0,0,0,0,0,0,0,0,0,0,0,0,0,0,0,0,0,0,0,0,0,0,0,0,0,
0,0,0,0,0,0,0,0,0,0,0,0,0,0,0,0,0,0,0,0,0,0,0,0,0,0,0,0,0,0,0,0,0,0,0,0,0,0,0,0,0,0,0,0,0,0,0,0,0,0,0,0,0,0,0,0,0,0,0,0,
0,0,0,0,0,0,0,0,0,0,0,0,0,0,0,0,0,0,0,0,0,0,0,0,0,0,0,0,0,0,0,0,0,0,0,0,0,0,0,0,0,0,0,0,0,0,0,0,0,0,0,0,0,0,0,0,0,0,0,0,
0,0,0,0,0,0,0,0,0,0,0,0,0,0,0,0,0,0,0,0,0,0,0,0,0,0,0,0,0,0,0,0,0,0,0,0,0,0,0,0,0,0,0,0,0,0,0,0,0,0,0,0,0,0,0,0,0,0,0,0,
0,0,0,0,0,0,0,0,0,0,0,0,0,0,0,0,0,0,0,0,0,0,0,0,0,0,0,0,0,0,0,0,0,0,0,0,0,0,0,0,0,0,0,0,0,0,0,0,0,0,0,0,0,0,0,0,0,0,0,0,
0,0,0,0,0,0,0,0,0,0,0,0,0,0,0,0,0,0,0,0,0,0,0,0,0,0,0,0,0,0,0,0,0,0,0,0,0,0,0,0,0,0,0,0,0,0,0,0,0,0,0,0,0,0,0,0,0,0,0,0,
0,0,0,0,0,0,0,0,0,0,0,0,0,0,0,0,0,0,0,0,0,0,0,0,0,0,0,0,0,0,0,0,0,0,0,0,0,0,0,0,0,0,0,0,0,0,0,0,0,0,0,0,0,0,0,0,0,0,0,0,
0,0,0,0,0,0,0,0,0,0,0,0,0,0,0,0,0,0,0,0,0,0,0,0,0,0,0,0,0,0,0,0,0,0,0,0,0,0,0,0,0,0,0,0,0,0,0,0,0,0,0,0,0,0,0,0,0,0,0,0,
0,0,0,0,0,0,0,0,0,0,0,0,0,0,0,0,0,0,0,0,0,0,0,0,0,0,0,0,0,0,0,0,0,0,0,0,0,0,0,0,0,0,0,0,0,0,0,0,0,0,0,0,0,0,0,0,0,0,0,0,
0,0,0,0,0,0,0,0,0,0,0,0,0,0,0,0,0,0,0,0,0,0,0,0,0,0,0,0,0,0,0,0,0,0,0,0,0,0,0,0,0,0,0,0,0,0,0,0,0,0,0,0,0,0,0,0,0,0,0,0
</data>
 </layer>
 <layer id="4" name="Front" width="60" height="40">
  <data encoding="csv">
0,0,0,0,0,0,0,0,0,0,0,0,0,0,0,0,0,0,0,0,0,0,0,0,0,0,0,0,0,0,0,0,0,0,0,0,0,0,0,0,0,0,0,0,0,0,0,0,0,0,0,0,0,0,0,0,0,0,0,0,
0,0,0,0,0,0,0,0,0,0,0,0,0,0,0,0,0,0,0,0,0,0,0,0,0,0,0,0,0,0,0,0,0,0,0,0,0,0,0,0,0,0,0,0,0,0,0,0,0,0,0,0,0,0,0,0,0,0,0,0,
0,0,0,0,0,0,0,0,0,0,0,0,0,0,0,0,0,0,0,0,0,0,0,0,0,0,0,0,0,0,0,0,0,0,0,0,0,0,0,0,0,0,0,0,0,0,0,0,0,0,0,0,0,0,0,0,0,0,0,0,
0,0,0,0,0,0,0,0,0,0,0,0,0,0,0,0,0,0,0,0,0,0,0,0,0,0,0,2486,2487,2487,2487,2487,2488,0,0,0,0,0,0,0,0,0,0,0,0,0,0,0,0,0,0,0,0,0,0,0,0,0,0,0,
0,0,0,0,0,0,0,0,0,0,0,0,0,0,0,0,0,0,0,0,0,0,0,0,0,0,0,0,0,0,0,0,0,0,0,0,0,0,0,0,0,0,0,0,0,0,0,0,0,0,0,0,0,0,0,0,0,0,0,0,
0,0,0,0,0,0,0,0,0,0,0,0,0,0,0,0,0,0,817,818,819,0,0,0,0,0,0,0,0,0,0,0,0,0,0,0,0,0,0,0,0,0,0,0,0,0,0,0,0,0,0,0,0,0,0,817,818,819,0,0,
0,0,945,0,0,0,0,0,945,0,0,0,0,0,0,0,0,0,0,0,0,0,0,0,945,0,0,0,0,0,0,0,0,0,0,1986,1987,1988,1989,0,1986,1987,1988,1989,0,0,0,0,0,0,0,1009,1010,1010,1011,0,850,0,0,0,
0,0,0,0,0,0,0,0,0,0,0,0,0,0,0,0,0,0,0,0,0,0,0,0,0,0,0,0,0,0,0,0,0,0,0,0,0,0,0,0,0,0,0,0,0,0,0,0,0,1198,1199,0,0,0,0,0,0,0,0,0,
0,0,0,0,0,0,0,0,0,0,0,0,0,0,0,0,0,0,0,0,0,0,0,0,0,0,0,0,0,0,0,0,0,0,0,0,0,0,0,2536,0,0,0,0,0,0,0,0,0,0,0,0,0,0,0,0,0,0,0,0,
0,0,0,0,0,0,0,945,0,0,0,0,0,0,0,0,0,0,0,0,0,0,0,0,0,0,0,0,0,0,0,0,0,0,0,0,0,0,0,2536,0,0,0,0,0,0,0,0,0,0,0,0,0,0,0,0,0,0,0,0,
0,0,0,0,0,0,0,0,0,0,0,0,0,0,0,0,0,0,851,0,0,0,0,0,0,0,0,0,0,0,0,0,0,0,0,0,0,0,0,0,0,0,4061,0,0,4061,0,4061,4061,0,0,4061,0,0,0,0,0,0,0,0,
0,0,0,0,0,0,0,0,0,0,0,0,0,0,0,0,0,0,0,0,0,0,0,0,0,0,0,0,0,0,0,0,0,0,0,0,0,188,0,0,4791,4792,4793,4794,4792,4793,4794,4792,4793,4792,4793,4794,4795,0,0,0,0,0,0,0,
0,0,0,0,0,0,0,0,0,0,0,0,0,0,0,0,0,0,0,0,0,0,0,0,0,0,0,0,0,0,0,0,0,0,0,0,0,0,0,4062,0,0,0,0,0,0,0,0,0,0,0,0,0,2147487742,0,0,2536,2537,0,0,
0,0,0,0,0,0,0,0,0,0,0,0,0,0,0,0,0,0,0,0,0,0,0,0,0,0,0,0,0,0,0,0,0,0,0,0,0,0,0,0,0,0,0,0,0,0,0,0,0,0,0,0,0,0,0,0,2536,2537,0,0,
0,0,851,0,0,0,0,0,0,0,0,0,0,0,0,0,0,0,0,945,0,0,0,0,0,0,0,0,0,0,0,0,0,0,0,0,0,0,0,4062,0,0,0,0,0,0,0,0,0,0,0,0,0,0,0,0,2536,2537,0,0,
0,0,0,0,0,0,0,0,0,0,0,0,0,0,0,0,0,0,0,0,0,0,0,0,0,0,0,0,0,0,0,0,0,0,0,0,0,0,0,0,0,0,0,0,0,0,0,0,0,0,0,0,0,2147487742,0,0,2536,2537,0,0,
0,0,0,0,0,0,0,0,0,0,0,0,0,0,0,0,0,0,0,0,0,0,0,0,0,0,0,0,0,0,0,0,0,0,0,0,0,0,0,0,0,0,0,0,0,0,0,0,0,0,0,0,0,2147487742,0,0,2536,2537,0,0,
0,0,0,0,0,0,0,0,945,0,0,0,0,0,0,0,0,0,945,0,0,0,0,0,0,0,0,0,0,0,0,0,0,0,0,0,0,0,0,0,0,0,4063,4063,0,4063,0,4063,0,0,0,4063,0,0,0,0,2536,2537,0,0,
0,0,945,0,0,0,0,0,0,0,0,0,0,0,0,0,0,0,0,0,0,0,0,0,0,0,0,0,0,0,0,0,0,0,0,817,818,819,0,0,0,0,0,0,0,0,0,0,0,193,0,0,0,0,0,0,0,0,0,0,
0,0,0,0,0,0,0,0,0,0,0,0,0,0,0,0,0,0,0,0,0,0,0,0,0,0,0,0,0,0,0,0,0,0,0,0,850,0,0,0,0,0,0,0,0,0,0,0,0,0,0,0,0,0,0,0,0,0,0,0,
0,0,0,0,0,0,0,0,0,0,0,0,0,0,0,0,0,0,0,0,0,0,0,0,0,0,0,0,0,0,160,162,0,0,0,0,0,0,0,0,0,0,0,0,0,0,0,0,0,0,0,0,0,0,0,0,0,0,0,0,
0,0,0,0,0,0,0,0,0,0,0,0,0,0,0,0,0,0,0,0,0,0,0,0,0,0,0,0,0,0,0,0,0,0,0,0,0,0,0,0,0,0,0,0,0,0,0,0,0,0,0,0,0,0,0,0,0,0,0,0,
0,0,0,0,0,0,0,0,0,0,0,0,0,0,0,0,0,0,0,0,0,0,0,0,0,0,0,0,0,0,0,0,0,0,0,0,0,0,0,0,0,0,0,0,0,0,0,0,0,0,0,0,0,0,0,0,0,0,0,0,
0,0,0,2343,0,2343,0,0,0,2343,0,2343,0,0,0,2343,0,2343,0,0,0,2343,0,2343,0,0,0,0,0,0,0,0,0,0,0,0,0,0,0,0,0,0,0,0,0,0,0,0,0,0,0,0,0,0,0,0,0,0,0,0,
0,0,0,0,0,0,0,0,0,0,0,0,0,0,0,0,0,0,0,0,0,0,0,0,0,0,0,0,0,0,0,0,0,0,0,0,0,0,0,0,0,0,0,0,0,0,0,0,0,0,0,0,0,0,0,0,0,0,0,0,
0,0,0,0,0,0,0,0,0,0,0,0,0,0,0,0,0,0,0,0,0,0,0,0,0,0,0,0,0,0,0,0,0,0,0,2343,2536,2537,0,0,2343,0,0,0,0,2343,0,0,0,0,2343,0,0,0,0,2343,0,851,0,0,
0,0,0,0,0,0,0,0,0,0,0,0,0,0,0,0,0,164,0,0,0,0,0,0,0,0,0,0,0,0,0,0,0,0,0,0,0,0,0,0,0,0,0,0,0,0,0,0,0,0,0,0,0,0,0,0,0,0,0,0,
0,0,0,0,0,0,0,0,0,0,0,0,0,0,0,0,0,0,0,0,0,0,0,0,0,0,0,0,0,0,0,0,0,0,0,0,0,0,0,0,0,0,0,0,0,0,0,0,0,0,0,0,0,0,0,0,0,0,0,0,
0,0,0,0,0,0,0,0,0,0,0,0,0,0,0,0,0,0,0,0,0,0,0,0,0,0,0,0,0,0,0,0,0,0,0,0,0,194,0,0,0,0,0,187,0,0,0,0,0,0,0,0,0,0,0,0,0,0,0,0,
0,0,0,0,0,0,0,0,0,0,0,0,0,0,0,0,0,0,0,0,0,0,0,0,0,192,0,0,0,0,0,0,0,0,0,0,0,0,0,0,0,0,0,0,0,0,0,0,0,0,0,0,185,0,0,0,0,0,0,0,
0,0,0,0,0,0,0,0,0,0,0,0,0,0,0,0,0,0,0,0,0,0,0,0,0,0,0,0,0,0,0,0,0,0,0,0,0,0,0,0,0,0,0,0,0,0,0,0,0,0,0,0,0,0,0,0,0,0,0,0,
0,0,0,0,0,0,0,0,0,0,0,0,0,0,0,0,0,0,0,0,0,0,0,0,0,0,0,0,0,0,0,0,0,0,0,0,0,0,0,0,0,0,0,0,0,0,0,0,0,0,0,0,195,0,0,0,0,0,0,0,
0,0,0,0,0,0,0,204,0,0,0,0,0,0,0,0,0,0,0,0,0,0,0,0,0,0,0,0,0,0,0,0,0,0,0,0,0,0,0,0,0,0,0,0,0,0,0,0,0,0,0,0,0,0,0,0,0,0,0,0,
0,0,0,0,0,0,0,0,0,0,0,0,0,0,0,0,0,0,0,0,0,0,0,0,0,0,0,0,0,0,0,0,0,817,818,819,0,0,0,0,0,0,0,0,0,0,0,0,0,0,0,0,0,0,0,0,0,0,0,0,
0,0,0,0,0,0,0,0,0,0,0,0,0,0,0,0,0,0,0,0,0,0,0,0,0,0,0,0,0,0,0,0,0,0,850,0,0,0,0,0,0,0,0,0,0,0,0,0,2536,2537,2536,2537,2536,2537,2536,2537,2536,2537,0,0,
0,0,0,0,0,0,0,0,0,0,0,0,0,0,0,0,0,0,0,0,0,0,0,0,0,0,0,0,0,0,0,0,0,0,0,0,0,0,0,0,0,0,0,0,0,0,0,0,0,0,0,0,0,0,0,0,0,0,0,0,
0,0,0,0,0,0,0,0,0,0,0,0,0,0,0,0,0,0,0,0,0,0,0,0,0,0,0,0,0,0,0,0,0,0,0,0,0,0,0,0,0,0,0,0,0,0,0,0,0,0,0,0,0,0,0,0,0,0,0,0,
0,0,0,0,0,0,0,0,0,0,0,0,0,0,0,0,0,0,0,0,0,0,0,0,0,0,0,0,0,0,0,0,0,0,0,0,0,0,0,0,0,0,0,0,0,0,0,0,0,0,0,0,0,0,0,0,0,0,0,0,
0,0,0,0,0,0,0,0,0,0,0,0,0,0,0,0,0,0,0,0,0,0,0,0,0,0,0,0,0,0,0,0,0,0,0,0,0,0,0,0,0,0,0,0,0,0,0,0,0,0,0,0,0,0,0,0,0,0,0,0,
0,0,0,0,0,0,0,0,0,0,0,0,0,0,0,0,0,0,0,0,0,0,0,0,0,0,0,0,0,0,0,0,0,0,0,0,0,0,0,0,0,0,0,0,0,0,0,0,0,0,0,0,0,0,0,0,0,0,0,0
</data>
 </layer>
 <layer id="5" name="AlwaysFront" width="60" height="40">
  <data encoding="csv">
0,0,0,0,0,0,0,0,0,0,0,0,0,0,0,0,0,0,0,0,0,0,0,0,0,0,0,0,0,0,0,0,0,0,0,0,0,0,0,0,0,0,0,0,0,0,0,0,0,0,0,0,0,0,0,0,0,0,0,0,
0,0,0,0,0,0,0,0,0,0,0,0,0,0,0,0,0,0,0,0,0,0,0,0,0,0,0,0,0,0,0,0,0,0,0,0,0,0,0,0,0,0,0,0,0,0,0,0,0,0,0,0,0,0,0,0,0,0,0,0,
0,0,0,0,0,0,0,0,0,0,0,0,0,0,0,0,0,0,0,0,0,0,0,0,0,0,0,0,0,0,0,0,0,0,0,0,0,0,0,0,0,0,0,0,0,0,0,0,0,0,0,0,0,0,0,0,0,0,0,0,
0,0,0,0,0,0,0,0,0,0,0,0,0,0,0,0,0,0,0,0,0,0,0,0,0,0,0,0,0,0,0,0,0,0,0,0,0,0,0,0,0,0,0,0,0,0,0,0,0,0,0,0,0,0,0,0,0,0,0,0,
0,0,0,0,0,0,0,0,0,0,0,0,0,0,0,0,0,0,0,0,0,0,0,0,0,0,0,0,0,0,0,0,0,0,0,0,0,0,0,0,0,0,0,0,0,0,0,0,0,0,0,0,0,0,0,0,0,0,0,0,
0,0,0,0,0,0,0,0,0,0,0,0,0,0,0,0,0,0,0,0,0,0,0,0,0,0,0,0,0,0,0,0,0,0,0,0,0,0,0,0,0,0,0,0,0,0,0,0,0,0,0,0,0,0,0,0,0,0,0,0,
0,0,0,0,0,0,0,0,0,0,0,0,0,0,0,0,0,0,0,0,0,0,0,0,0,0,0,0,0,0,0,0,0,0,0,0,0,0,0,0,0,0,0,0,0,0,0,0,0,0,0,0,0,0,0,0,0,0,0,0,
0,0,0,0,0,0,0,0,0,0,0,0,0,0,0,0,0,0,0,0,0,0,0,0,0,0,0,0,0,0,0,0,0,0,0,0,0,0,0,0,0,0,0,0,0,0,0,0,0,0,0,0,0,0,0,0,0,0,0,0,
0,0,0,0,0,0,0,0,0,0,0,0,0,0,0,0,0,0,0,0,0,0,0,0,0,0,0,0,0,0,0,0,0,0,0,0,0,0,0,0,0,0,0,0,0,0,0,0,0,0,0,0,0,0,0,0,0,0,0,0,
0,0,0,0,0,0,0,0,0,0,0,0,0,0,0,0,0,0,0,0,0,0,0,0,0,0,0,0,0,0,0,0,0,0,0,0,0,0,0,0,0,0,0,0,0,0,0,0,0,0,0,0,0,0,0,0,0,0,0,0,
0,0,0,0,0,0,0,0,0,0,0,0,0,0,0,0,0,0,0,0,0,0,0,0,0,0,0,0,0,0,0,0,0,0,0,0,0,0,0,0,0,0,0,0,0,0,0,0,0,0,0,0,0,0,0,0,0,0,0,0,
0,0,0,0,0,0,0,0,0,0,0,0,0,0,0,0,0,0,0,0,0,0,0,0,0,0,0,0,0,0,0,0,0,0,0,0,0,0,0,0,0,0,0,0,0,0,0,0,0,0,0,0,0,0,0,0,0,0,0,0,
0,0,0,0,0,0,0,0,0,0,0,0,0,0,0,0,0,0,0,0,0,0,0,0,0,2342,2341,0,0,0,0,0,0,2342,2341,0,0,0,0,0,0,0,0,0,0,0,0,0,0,0,0,0,0,0,0,0,0,0,0,0,
0,0,0,0,0,0,0,0,0,0,0,0,0,0,0,0,0,0,0,0,0,0,0,0,0,0,0,0,0,0,0,0,0,0,0,0,0,0,0,0,0,0,0,0,0,0,0,0,0,0,0,0,0,0,0,0,0,0,0,0,
0,0,0,0,0,0,0,0,0,0,0,0,0,0,0,0,0,0,0,0,0,0,0,0,0,0,0,0,0,0,0,0,0,0,0,0,0,0,0,0,0,0,0,0,0,0,0,0,0,0,0,0,0,0,0,0,0,0,0,0,
0,0,0,0,0,0,0,0,0,0,0,0,0,0,0,0,0,0,0,0,0,0,0,0,0,0,0,0,0,0,0,0,0,0,0,0,0,0,0,0,0,0,0,0,0,0,0,0,0,0,0,0,0,0,0,0,0,0,0,0,
0,0,0,0,0,0,0,0,0,0,0,0,0,0,0,0,0,0,0,0,0,0,0,0,0,0,0,0,0,0,0,0,0,0,0,0,0,0,0,0,0,0,0,0,0,0,0,0,0,0,0,0,0,0,0,0,0,0,0,0,
0,0,0,0,0,0,0,0,0,0,0,0,0,0,0,0,0,0,0,0,0,0,0,0,0,0,0,0,0,0,0,0,0,0,0,0,0,0,0,0,0,0,0,0,0,0,0,0,0,0,0,0,0,0,0,0,0,0,0,0,
0,0,0,0,0,0,0,0,0,0,0,0,0,0,0,0,0,0,0,0,0,0,0,0,0,2342,2341,0,0,0,0,0,0,2342,2341,0,0,0,0,0,0,0,0,0,0,0,0,0,0,0,0,0,0,0,0,0,0,0,0,0,
0,0,0,0,0,0,0,0,0,0,0,0,0,0,0,0,0,0,0,0,0,0,0,0,0,0,0,0,0,0,0,0,0,0,0,0,0,0,0,0,0,0,0,0,0,0,0,0,0,0,0,0,0,0,0,0,0,0,0,0,
0,0,2403,2403,2403,2403,2403,2403,2403,2403,2403,2403,2403,2403,2403,2403,2403,2403,2403,2403,2403,2403,2403,2403,2403,0,0,0,0,0,0,0,0,0,0,2403,2403,2403,2403,2403,2403,2403,2403,2403,2403,2403,2403,2403,2403,2403,2403,2403,2403,2403,2403,2403,2403,2403,0,0,
0,0,0,0,0,0,0,0,0,0,0,0,0,0,0,0,0,0,0,0,0,0,0,0,0,0,0,0,0,0,0,0,0,0,0,0,0,0,0,0,0,0,0,0,0,0,0,0,0,0,0,0,0,0,0,0,0,0,0,0,
0,0,0,0,0,0,0,0,0,0,0,0,0,0,0,0,0,0,0,0,0,0,0,0,0,0,0,0,0,0,0,0,0,0,0,0,0,0,0,0,0,0,0,0,0,0,0,0,0,0,0,0,0,0,0,0,0,0,0,0,
0,0,0,0,0,0,0,0,0,0,0,0,0,0,0,0,0,0,0,0,0,0,0,0,0,0,0,0,0,0,0,0,0,0,0,0,0,0,0,0,0,0,0,0,0,0,0,0,0,0,0,0,0,0,0,0,0,0,0,0,
0,0,0,0,0,0,0,0,0,0,0,0,0,0,0,0,0,0,0,0,0,0,0,0,0,0,0,0,0,0,0,0,0,0,0,0,0,0,0,0,0,0,0,0,0,0,0,0,0,0,0,0,0,0,0,0,0,0,0,0,
0,0,0,0,0,0,0,0,0,0,0,0,0,0,0,0,0,0,0,0,0,0,0,0,0,0,0,0,0,0,0,0,0,0,0,0,0,0,0,0,0,0,0,0,0,0,0,0,0,0,0,0,0,0,0,0,0,0,0,0,
0,0,0,0,0,0,0,0,0,0,0,0,0,0,0,0,0,0,0,0,0,0,0,0,0,0,0,0,0,0,0,0,0,0,0,0,0,0,0,0,0,0,0,0,0,0,0,0,0,0,0,0,0,0,0,0,0,0,0,0,
0,0,0,0,0,0,0,0,0,0,0,0,0,0,0,0,0,0,0,0,0,0,0,0,0,0,0,0,0,0,0,0,0,0,0,0,0,0,0,0,0,0,0,0,0,0,0,0,0,0,0,0,0,0,0,0,0,0,0,0,
0,0,0,0,0,0,0,0,0,0,0,0,0,0,0,0,0,0,0,0,0,0,0,0,0,0,0,0,0,0,0,0,0,0,0,0,0,0,0,0,0,0,0,0,0,0,0,0,0,0,0,0,0,0,0,0,0,0,0,0,
0,0,0,0,0,0,0,0,0,0,0,0,0,0,0,0,0,0,0,0,0,0,0,0,0,0,0,0,0,0,0,0,0,0,0,0,0,0,0,0,0,0,0,0,0,0,0,0,0,0,0,0,0,0,0,0,0,0,0,0,
0,0,0,0,0,0,0,0,0,0,0,0,0,0,0,0,0,0,0,0,0,0,0,0,0,0,0,0,0,0,0,0,0,0,0,0,0,0,0,0,0,0,0,0,0,0,0,0,0,0,0,0,0,0,0,0,0,0,0,0,
0,0,0,0,0,0,0,0,0,0,0,0,0,0,0,0,0,0,0,0,0,0,0,0,0,0,0,0,0,0,0,0,0,0,0,0,0,0,0,0,0,0,0,0,0,0,0,0,0,0,0,0,0,0,0,0,0,0,0,0,
0,0,0,0,0,0,0,0,0,0,0,0,0,0,0,0,0,0,0,0,0,0,0,0,0,0,0,0,0,0,0,0,0,0,0,0,0,0,0,0,0,0,0,0,0,0,0,0,0,0,0,0,0,0,0,0,0,0,0,0,
0,0,0,0,0,0,0,0,0,0,0,0,0,0,0,0,0,0,0,0,0,0,0,0,0,0,0,0,0,0,0,0,0,0,0,0,0,0,0,0,0,0,0,0,0,0,0,0,0,0,0,0,0,0,0,0,0,0,0,0,
0,0,0,0,0,0,0,0,0,0,0,0,0,0,0,0,0,0,0,0,0,0,0,0,0,0,0,0,0,0,0,0,0,0,0,0,0,0,0,0,0,0,0,0,0,0,0,0,0,0,0,0,0,0,0,0,0,0,0,0,
0,0,2403,2403,2403,2403,2403,2403,2403,2403,2403,2403,2403,2403,2403,2403,2403,2403,2403,2403,2403,2403,2403,2403,2403,2403,2341,0,0,0,0,0,0,2342,2403,2403,2403,2403,2403,2403,2403,2403,2403,2403,2403,2403,2403,2403,2403,2403,2403,2403,2403,2403,2403,2403,2403,2403,0,0,
0,0,0,0,0,0,0,0,0,0,0,0,0,0,0,0,0,0,0,0,0,0,0,0,0,0,0,0,0,0,0,0,0,0,0,0,0,0,0,0,0,0,0,0,0,0,0,0,0,0,0,0,0,0,0,0,0,0,0,0,
0,0,0,0,0,0,0,0,0,0,0,0,0,0,0,0,0,0,0,0,0,0,0,0,0,0,0,0,0,0,0,0,0,0,0,0,0,0,0,0,0,0,0,0,0,0,0,0,0,0,0,0,0,0,0,0,0,0,0,0,
0,0,0,0,0,0,0,0,0,0,0,0,0,0,0,0,0,0,0,0,0,0,0,0,0,0,2402,2403,2403,2403,2403,2403,2403,0,0,0,0,0,0,0,0,0,0,0,0,0,0,0,0,0,0,0,0,0,0,0,0,0,0,0,
0,0,0,0,0,0,0,0,0,0,0,0,0,0,0,0,0,0,0,0,0,0,0,0,0,0,0,0,0,0,0,0,0,0,0,0,0,0,0,0,0,0,0,0,0,0,0,0,0,0,0,0,0,0,0,0,0,0,0,0
</data>
 </layer>
 <objectgroup id="6" name="Back"/>
 <objectgroup id="7" name="Buildings">
  <object id="1" name="TileData" x="64" y="400" width="16" height="32">
   <properties>
    <property name="Action" value="Message &quot;THTjoja2.1&quot;"/>
   </properties>
  </object>
  <object id="2" x="160" y="400" width="16" height="32">
   <properties>
    <property name="Action" value="Message &quot;THTjoja2.2&quot;"/>
   </properties>
  </object>
  <object id="6" name="TileData" x="96" y="368" width="48" height="32">
   <properties>
    <property name="Action" value="Message &quot;THTjoja2.3&quot;"/>
   </properties>
  </object>
  <object id="7" name="TileData" x="112" y="400" width="16" height="32">
   <properties>
    <property name="Action" value="Message &quot;THTjoja2.3&quot;"/>
   </properties>
  </object>
  <object id="10" name="TileData" x="192" y="368" width="48" height="32">
   <properties>
    <property name="Action" value="Message &quot;THTjoja2.3&quot;"/>
   </properties>
  </object>
  <object id="11" name="TileData" x="208" y="400" width="16" height="32">
   <properties>
    <property name="Action" value="Message &quot;THTjoja2.3&quot;"/>
   </properties>
  </object>
  <object id="12" name="TileData" x="288" y="368" width="48" height="32">
   <properties>
    <property name="Action" value="Message &quot;THTjoja2.3&quot;"/>
   </properties>
  </object>
  <object id="13" name="TileData" x="304" y="400" width="16" height="32">
   <properties>
    <property name="Action" value="Message &quot;THTjoja2.3&quot;"/>
   </properties>
  </object>
  <object id="14" name="TileData" x="112" y="512" width="16" height="32">
   <properties>
    <property name="Action" value="MessageSpeech &quot;THTjoja2.4&quot;"/>
   </properties>
  </object>
  <object id="15" name="TileData" x="256" y="416" width="16" height="32">
   <properties>
    <property name="Action" value="MessageSpeech &quot;THTjoja2.5&quot;"/>
   </properties>
  </object>
  <object id="16" name="TileData" x="272" y="416" width="16" height="32">
   <properties>
    <property name="Action" value="MessageSpeech &quot;THTjoja2.6&quot;"/>
   </properties>
  </object>
  <object id="17" name="TileData" x="352" y="400" width="16" height="32">
   <properties>
    <property name="Action" value="Message &quot;THTjoja2.7&quot;"/>
   </properties>
  </object>
  <object id="18" name="TileData" x="400" y="464" width="16" height="32">
   <properties>
    <property name="Action" value="MessageSpeech &quot;THTjoja2.8&quot;"/>
   </properties>
  </object>
  <object id="19" name="TileData" x="528" y="528" width="48" height="16">
   <properties>
    <property name="Action" value="Message &quot;THTjoja2.3&quot;"/>
   </properties>
  </object>
  <object id="20" name="TileData" x="544" y="544" width="16" height="32">
   <properties>
    <property name="Action" value="Message &quot;THTjoja2.3&quot;"/>
   </properties>
  </object>
  <object id="21" name="TileData" x="592" y="448" width="16" height="32">
   <properties>
    <property name="Action" value="MessageSpeech &quot;THTjoja2.9&quot;"/>
   </properties>
  </object>
  <object id="22" name="TileData" x="592" y="432" width="16" height="16">
   <properties>
    <property name="Action" value="MessageSpeech &quot;THTjoja2.10&quot;"/>
   </properties>
  </object>
  <object id="23" name="TileData" x="688" y="448" width="16" height="32">
   <properties>
    <property name="Action" value="MessageSpeech &quot;THTjoja2.11&quot;"/>
   </properties>
  </object>
  <object id="24" name="TileData" x="688" y="432" width="16" height="16">
   <properties>
    <property name="Action" value="MessageSpeech &quot;THTjoja2.12&quot;"/>
   </properties>
  </object>
  <object id="25" name="TileData" x="752" y="448" width="16" height="32">
   <properties>
    <property name="Action" value="MessageSpeech &quot;THTjoja2.13&quot;"/>
   </properties>
  </object>
  <object id="26" name="TileData" x="752" y="432" width="16" height="16">
   <properties>
    <property name="Action" value="MessageSpeech &quot;THTjoja2.14&quot;"/>
   </properties>
  </object>
  <object id="27" name="TileData" x="832" y="432" width="16" height="16">
   <properties>
    <property name="Action" value="MessageSpeech &quot;THTjoja2.15&quot;"/>
   </properties>
  </object>
  <object id="28" name="TileData" x="832" y="464" width="16" height="32">
   <properties>
    <property name="Action" value="MessageSpeech &quot;THTjoja2.16&quot;"/>
   </properties>
  </object>
  <object id="29" name="TileData" x="832" y="496" width="16" height="32">
   <properties>
    <property name="Action" value="MessageSpeech &quot;THTjoja2.17&quot;"/>
   </properties>
  </object>
  <object id="30" name="TileData" x="912" y="400" width="16" height="32">
   <properties>
    <property name="Action" value="Message &quot;THTjoja2.18&quot;"/>
   </properties>
  </object>
  <object id="31" name="TileData" x="560" y="288" width="48" height="16">
   <properties>
    <property name="Action" value="Message &quot;THTjoja2.3&quot;"/>
   </properties>
  </object>
  <object id="32" name="TileData" x="576" y="304" width="16" height="32">
   <properties>
    <property name="Action" value="Message &quot;THTjoja2.3&quot;"/>
   </properties>
  </object>
  <object id="33" name="TileData" x="880" y="80" width="48" height="16">
   <properties>
    <property name="Action" value="Message &quot;THTjoja2.3&quot;"/>
   </properties>
  </object>
  <object id="34" name="TileData" x="896" y="96" width="16" height="32">
   <properties>
    <property name="Action" value="Message &quot;THTjoja2.3&quot;"/>
   </properties>
  </object>
  <object id="35" name="TileData" x="288" y="80" width="48" height="16">
   <properties>
    <property name="Action" value="Message &quot;THTjoja2.3&quot;"/>
   </properties>
  </object>
  <object id="36" name="TileData" x="304" y="96" width="16" height="32">
   <properties>
    <property name="Action" value="Message &quot;THTjoja2.3&quot;"/>
   </properties>
  </object>
  <object id="38" name="TileData" x="288" y="160" width="16" height="32">
   <properties>
    <property name="Action" value="Message &quot;THTjoja2.18&quot;"/>
   </properties>
  </object>
  <object id="39" name="TileData" x="32" y="224" width="16" height="32">
   <properties>
    <property name="Action" value="Message &quot;THTjoja2.18&quot;"/>
   </properties>
  </object>
  <object id="41" name="TileData" x="480" y="320" width="16" height="32">
   <properties>
    <property name="Action" value="MessageSpeech &quot;THTjoja2.19&quot;"/>
   </properties>
  </object>
  <object id="42" name="TileData" x="496" y="320" width="16" height="32">
   <properties>
    <property name="Action" value="MessageSpeech &quot;THTjoja2.20&quot;"/>
   </properties>
  </object>
  <object id="43" name="TileData" x="320" y="304" width="16" height="32">
   <properties>
    <property name="Action" value="MessageSpeech &quot;THTjoja2.21&quot;"/>
   </properties>
  </object>
  <object id="45" name="TileData" x="48" y="240" width="16" height="32">
   <properties>
    <property name="Action" value="MessageSpeech &quot;THTjoja2.22&quot;"/>
   </properties>
  </object>
  <object id="46" name="TileData" x="80" y="240" width="16" height="32">
   <properties>
    <property name="Action" value="MessageSpeech &quot;THTjoja2.23&quot;"/>
   </properties>
  </object>
  <object id="47" name="TileData" x="48" y="176" width="16" height="32">
   <properties>
    <property name="Action" value="MessageSpeech &quot;THTjoja2.24&quot;"/>
   </properties>
  </object>
  <object id="48" name="TileData" x="80" y="176" width="16" height="32">
   <properties>
    <property name="Action" value="MessageSpeech &quot;THTjoja2.25&quot;"/>
   </properties>
  </object>
  <object id="49" name="TileData" x="224" y="240" width="16" height="32">
   <properties>
    <property name="Action" value="MessageSpeech &quot;THTjoja2.26&quot;"/>
   </properties>
  </object>
  <object id="50" name="TileData" x="256" y="112" width="16" height="32">
   <properties>
    <property name="Action" value="MessageSpeech &quot;THTjoja2.27&quot;"/>
   </properties>
  </object>
  <object id="51" name="TileData" x="320" y="112" width="16" height="32">
   <properties>
    <property name="Action" value="MessageSpeech &quot;THTjoja2.28&quot;"/>
   </properties>
  </object>
  <object id="52" name="TileData" x="464" y="64" width="16" height="48">
   <properties>
    <property name="Action" value="MessageSpeech &quot;THTjoja2.29&quot;"/>
   </properties>
  </object>
  <object id="53" name="TileData" x="592" y="176" width="16" height="32">
   <properties>
    <property name="Action" value="MessageSpeech &quot;THTjoja2.30&quot;"/>
   </properties>
  </object>
  <object id="54" name="TileData" x="704" y="112" width="80" height="48">
   <properties>
    <property name="Action" value="Message &quot;THTjoja2.31&quot;"/>
   </properties>
  </object>
  <object id="56" name="TileData" x="784" y="288" width="16" height="32">
   <properties>
    <property name="Action" value="MessageSpeech &quot;THTjoja2.32&quot;"/>
   </properties>
  </object>
 </objectgroup>
 <objectgroup id="8" name="Paths"/>
 <objectgroup id="9" name="Front"/>
 <objectgroup id="10" name="AlwaysFront"/>
</map>
